!!!!SEGMENT: pl-wn--mus-iii-80-558--001-003_wieniawski-henryk--concerto-i-op-14-rondo.krn
!!!cenid: 18xx:3831
!!!COM: Wieniawski, Henryk
!!!COM-rismID: pe137176
!!!CDT: 1835/07/10-1880/03/31
!!!CNT:
!!!OPR: Concerto I op. 14
!!!OTL: Rondo
!!!OMV: 003
!!!PDT:
!!!AGN:
!!!YEC: Copyright 2022 Narodowy Instytut Fryderyka Chopina (https://polishscores.org)
!!!YEM: License CC-BY-4.0 (https://creativecommons.org/licenses/by/4.0)
!!!SMS-siglum: PL-Wn
!!!SMS-shelfmark: Mus.III.80.558
!!!SMS-variant:
!!!SMS-altvar:
!!!SMS-shelfwork: 001-003 M
!!!NIFC-rismSourceID:
!!!NIFC-rismChildID:
!!!NIFC-islandoraID: none
!!!URL-pdf-islandora:
!!!URL-scan: https://polona2.pl/item/concerto-i-op-14,NzIyMDM2MDU/3 @EN{Scan on Polona} @PL{Skany w portalu Polona}
!!!IIIF: https://polona2.pl/iiif/item/NzIyMDM2MDU/manifest.json
!!!ONB-nifc: UWAGA: części Koncertu: 1. Allegro moderato, 2. Preghiera. Larghetto (od skanu 19), 3. Rondo (od skanu 21)
!!!OMD: Allegro giojoso
!!!OMD-mod: Allegro gioioso
!!!AIN: 1 piano 1 violn
!!!key: f#
**kern	**kern	**dynam	**kern	**dynam
*part2	*part2	*	*part1	*
*staff3	*staff2	*	*staff1	*
*I"[Piano]	*I"[Piano]	*	*I"[Violon]	*
*I'	*I'	*	*I'	*
*Ipiano	*Ipiano	*	*Ivioln	*
*ICklav	*ICklav	*	*ICstr	*
*IGacmp	*IGacmp	*	*IGsolo	*
*mI"Pianoforte	*mI"Pianoforte	*	*mI"Violino	*
*mI'pf	*mI'pf	*	*mI'vl	*
*clefF4	*clefG2	*	*clefG2	*
*k[f#c#g#]	*k[f#c#g#]	*	*k[f#c#g#]	*
*f#:	*f#:	*	*f#:	*
*M2/4	*M2/4	*	*M2/4	*
*	*	*	*scale:75%	*
=1	=1	=1	=1	=1
*xywh-#22:405,547,2337,572	*xywh-#22:405,547,2337,572	*	*xywh-#22:416,286,2313,297	*
!!LO:TX:a:t=Rondo
!	!	!	!LO:TX:a:t=Rondo.:mod=	!
2r	4.cc#/ 4.c#/	ff	2r	.
.	16cc#/LL 16c#/	.	.	.
.	16cc#/JJ 16c#/	.	.	.
=2	=2	=2	=2	=2
2r	4.cc#/ 4.c#/	.	2r	.
.	16cc#/LL 16c#/	.	.	.
.	16cc#/JJ 16c#/	.	.	.
=3	=3	=3	=3	=3
2r	8cc#/L 8c#/	.	2r	.
.	8cc#/ 8c#/	.	.	.
.	8cc#/ 8c#/	.	.	.
.	8cc#/J 8c#/	.	.	.
=4	=4	=4	=4	=4
2r	8cc#/L 8c#/	.	2r	.
.	8cc#/ 8c#/	.	.	.
.	8cc#/ 8c#/	.	.	.
.	8cc#/J 8c#/	.	.	.
=5	=5	=5	=5	=5
8r	8cc#/L 8c#/	.	2r	.
4.ryy	16C#</L 16CC#</	.	.	.
!	!LO:SIC:s=(>>16c#'	!	!	!
.	(<16c#'\	<	.	.
.	16D</ 16DD</	.	.	.
.	16d'\	.	.	.
.	16C#</ 16CC#</	.	.	.
.	16c#'\JJ	[[	.	.
=6	=6	=6	=6	=6
2ryy	16F#</LL 16FF#</	>	2r	.
.	16f#'\)	.	.	.
.	16E#X</ 16EE#X</	] <	.	.
!	!LO:SIC:s=(>>16e#'	!	!	!
.	(16e#X'\	.	.	.
.	16A</ 16AA</	.	.	.
.	16a'\	.	.	.
.	16G#</ 16GG#</	.	.	.
.	16g#'\JJ	[[	.	.
!!LO:LB:g=original
=7	=7	=7	=7	=7
*xywh-#22:393,1333,2345,561	*xywh-#22:393,1333,2345,561	*	*xywh-#22:366,1136,2465,259	*
2ryy	16c#</LL 16C#</	>	2r	.
.	16cc#'\)	.	.	.
.	16B</ 16G#</ 16C#</	] <	.	.
.	(16cc#\ 16b\ 16e#X'\	.	.	.
.	16B</ 16G#</ 16C#</	.	.	.
.	16dd\ 16b\ 16e#'\	.	.	.
.	16B</ 16G#</ 16C#</	.	.	.
.	16cc#\JJ 16b\ 16e#'\	.	.	.
=8	=8	=8	=8	=8
2ryy	16B</LL 16G#</ 16C#</	.	2r	.
.	16ff#\ 16cc#\ 16b'\	.	.	.
.	16B</ 16G#</ 16C#</	.	.	.
.	16ee#X\ 16cc#\ 16b'\	.	.	.
.	16B</ 16G#</ 16C#</	.	.	.
.	16aa\ 16ee#\ 16cc#\ 16b'\	.	.	.
.	16B</ 16G#</ 16C#</	.	.	.
.	16gg#\JJ 16ee#\ 16cc#\ 16b'\	[[	.	.
=9	=9	=9	=9	=9
8B\ 8G#\ 8C#\	8ccc#\ 8gg#\ 8ee#X\ 8cc#`\)	>	4r	.
8r	8r	]	.	.
4r	4r	.	8r	.
.	.	.	(16qqcc#/LL	.
!	!	!	!LO:TX:a:i:t=poco rit.	!
.	.	.	16qqdd/JJ)	.
.	.	.	16.cc#\LL	p <
.	.	.	32b#X\JJk	[[
=10	=10	=10	=10	=10
!	!LO:TX:a:i:rj:t=poco rit.	!	!	!
2r	(>2b/ 2g#/	p	4cc#\	>
.	.	.	8r	]
.	.	.	(16qqcc#/LL	.
.	.	.	16qqdd/JJ)	.
.	.	.	16.cc#\LL	<
.	.	.	32b#X\JJk	[[
=11	=11	=11	=11	=11
2r	2a/ 2f#/	.	4cc#\	>
.	.	.	8r	]
.	.	.	(16qqcc#/LL	.
.	.	.	16qqdd/JJ)	.
.	.	.	16.cc#\LL	<
.	.	.	32b#X\JJk	[[
=12	=12	=12	=12	=12
2r	2g#/ 2c#/)	.	4cc#\	>
.	.	.	8r	]
.	.	.	(16qqcc#/LL	<
!	!LO:TX:a:i:t=a tempo	!	!LO:TX:a:i:t=a tempo	!
.	.	.	16qqdd/JJ)	.
!	!	!	!LO:TX:b:i:t=molto grazioso	!
.	.	.	16.cc#\LL	.
.	.	.	32b#X\JJk	[[
!!LO:LB:g=original
=13	=13	=13	=13	=13
*xywh-#22:339,2161,2399,503	*xywh-#22:339,2161,2399,503	*	*xywh-#22:355,1944,2403,236	*
!	!LO:MO:null:mod=!LO&colon;TX&colon;a&colon;i&colon;t=leggiero	!	!	!
!	!	!LO:MO:null:mod=.	!	!
2ryy	8E#X</L	p	16.cc#\LL	.
.	.	.	32dd#X\K	.
!	!LO:TX:b:i:rj:t=leggiero:mod=	!	!	!
.	8g#\ 8c#\ 8B\	.	16.ee#X\	.
.	.	.	32ff#\JJk	.
.	.	.	(16qqgg#/LL	.
.	.	.	16qqaa/JJ)	.
.	8C#</	.	16.gg#\LL	.
.	.	.	32ff##X\K	.
.	8e#X\J 8c#\ 8B\	.	16.gg#\	.
.	.	.	32aa\JJk	.
=14	=14	=14	=14	=14
2ryy	8F#</L	.	16.ff#X\LL	.
.	.	.	32gg#\K	.
.	8f#\ 8c#\ 8A\	.	16.aa\	.
.	.	.	32bb\JJk	.
.	8FF#</	.	8ccc#\L	.
.	8f#\J 8c#\ 8A\	.	(16.ccc#\L	<
.	.	.	32fff#\JJk	[[
*	*clefF4	*	*	*
=15	=15	=15	=15	=15
2ryy	8BB</L	.	8ddd\L)	>
.	8f#\ 8d\ 8F#\	.	(16.ddd\L	] <
.	.	.	32fff#\JJk	.
.	8AA</	.	8ccc#\L)	[ >
.	8f#\J 8c#\ 8F#\	.	(16.ccc#\L	] <
.	.	.	32fff#\JJk	[[
=16	=16	=16	=16	=16
8ryy	8BB</L	.	8ddd\L)	>
8ryy	8f#\J 8d\ 8F#\	.	(16.ddd\L	] <
.	.	.	32fff#\JJk	.
8AA/L	8r	.	8ccc#\L)	[ >
*	*clefG2	*	*	*
!	!LO:SIC:s=(>>8cc#/ 8f#/ 8c#/	!	!	!
8AA#X/J	(>8cc#/ 8f#/ 8c#/	<	(16.fff#\L	] <
.	.	.	32eee\JJk	.
=17	=17	=17	=17	=17
*	*^	*	*	*
*	*	*xywh-#22:339,2161,2399,503	*	*	*
8BB/L	8rf	4dd\ 4d\	.	16.ddd\LL)	.
.	.	.	.	(32bb\K	.
8E/J	4g#^/	.	.	16.gg#\)	.
.	.	.	.	(32eee\JJk	.
8AA/L	.	4cc#\ 4c#\	.	16.ccc#\LL)	.
.	.	.	.	(32aa\K	.
8D/J	[<8f#^/	.	.	16.gg#\)	.
.	.	.	.	(32ddd\JJk	.
=18	=18	=18	=18	=18	=18
8GG#/L	8f#/L]	4b\ 4B\	.	16.bb\LL)	.
.	.	.	.	(32gg#\K	.
8C#/J	8e#X/J	.	.	16.ee#X\)	.
.	.	.	.	(32ccc#\JJk	[[
8ryy	8FF#</L	4ryy	[ >	16.aa\LL)	>
.	.	.	.	(32ff#\K	.
8ryy	8a\J 8f#\ 8c#\ 8A\)	.	]	16.cc#\)	.
.	.	.	.	(32aa\JJk	] <
*	*v	*v	*	*	*
!!LO:LB:g=original
=19	=19	=19	=19	=19
*xywh-#22:328,2943,2472,545	*xywh-#22:328,2943,2472,545	*	*xywh-#22:339,2687,2476,294	*
2ryy	8GG#</L	<	16gg#\LL)	.
.	.	.	(16b#X\	.
.	8g#\ 8f#\ 8B#X\	.	16dd#X\	.
.	.	.	16gg#\JJ	.
.	8G#</	.	16eee#X^\LL	.
.	.	.	16gg#\	.
.	8g#\J 8f#\ 8B#\	.	16ff#\	.
.	.	.	16ddd#X\JJ	.
=20	=20	=20	=20	=20
2ryy	8C#</L	.	16ccc#\LL)	.
.	.	.	(16ee#X\	.
.	8g#\ 8e#X\ 8c#\ 8G#\	.	16gg#\	.
.	.	.	16ccc#\JJ	.
.	8GG#</	.	16eee#X^\LL	.
.	.	.	16gg#\	.
.	8g#\J 8f#\ 8B#X\ 8G#\	.	16ff#\	.
.	.	.	16ddd#X\JJ	.
=21	=21	=21	=21	=21
2ryy	8C#</L	.	16ccc#\LL)	.
.	.	.	(16ee#X\	.
.	8g#\ 8e#X\ 8c#\ 8G#\	.	16gg#\	.
.	.	.	16ccc#\JJ	.
.	8GG#</	.	16eee#X^\LL	.
.	.	.	16gg#\	.
.	8g#\J 8f#\ 8B#X\ 8G#\	.	16ff#\	.
.	.	.	16ddd#X\JJ)	.
=22	=22	=22	=22	=22
.	.	.	(8qbb#X/	f >
[2G#\ [2C#\	8cc#/ 8e#X/ 8c#/	f	[2ccc#T\)	.
.	8r	.	.	.
.	(>4g#/ [4e#/	p	.	.
=23	=23	=23	=23	=23
2G#\] 2C#\]	4cc#/ 4e#/])	.	16ccc#\LL]	]
.	.	.	(16ee#X\	p <
.	.	.	16gg#\	.
.	.	.	16ccc#\JJ	.
.	(>4dd/ [4f#/	.	16bb\LL	.
.	.	.	16ddn\	.
.	.	.	16ff#\	.
.	.	.	16bb\JJ)	[[
=24	=24	=24	=24	=24
.	.	.	(8qgg#/	>
*^	*	*	*	*
*	*xywh-#22:328,2943,2472,545	*	*	*	*
4A/	[2C#\	4cc#/ 4f#/]	.	[2aaT\)	.
4c#/	.	4a/ [4f#/	.	.	.
=25	=25	=25	=25	=25	=25
*	*	*^	*	*	*
*	*	*	*xywh-#32:353,1360,2388,545	*	*	*
4A/	2C#\_	[2cc#/	4f#\]	.	16aa\LL]	]
.	.	.	.	.	(16cc#\	<
.	.	.	.	.	16ff#\	.
.	.	.	.	.	16aa\JJ)	.
[4B/	.	.	[4e#X\	.	16gg#\LL	.
.	.	.	.	.	(16b\	.
.	.	.	.	.	16cc#\	.
.	.	.	.	.	16ccc#\JJ)	[
*v	*v	*	*	*	*	*
*	*v	*v	*	*	*
!!LO:PB:g=original
=26	=26	=26	=26	=26
*xywh-#23:142,574,2357,543	*xywh-#23:142,574,2357,543	*	*xywh-#23:157,329,2347,298	*
4B\] 4C#\]	4cc#/] 4e#X/])	.	(4.ccc#\	>
4r	4r	.	.	.
.	.	.	(16qqcc#/LL	]
!	!	!	!LO:TX:a:i:t=O:mod=	!
!	!	!	!LO:TX:b:i:t=delicatamente	!
.	.	.	16qqdd/JJ)	.
.	.	.	16.cc#\LL	.
.	.	.	32b#X\JJk)	.
=27	=27	=27	=27	=27
!!LO:TX:a:B:t=O
2ryy	8E#X</L	.	16.cc#\LL	.
.	.	.	32dd#X\K	.
.	8g#\ 8c#\ 8B\	.	16.ee#X\	.
.	.	.	32ff#\JJk	.
.	.	.	(16qqgg#/LL	.
.	.	.	16qqaa/JJ)	.
.	8C#</	.	16.gg#\LL	.
.	.	.	32ff##X\K	.
.	8e#X\J 8c#\ 8B\	.	16.gg#\	.
.	.	.	32aa\JJk	.
=28	=28	=28	=28	=28
*	*	*	*	*^
2ryy	8F#</L	<	16.ff#X\LL	.	.
.	.	.	32gg#\K	.	.
.	8f#\ 8c#\ 8A\	.	16.aa\	.	.
.	.	.	32bb\JJk	.	.
.	8FF#</	.	8ccc#\L	.	.
!	!	!	!	!	!LO:MO:null:mod=.
.	8f#\J 8c#\ 8A\	.	(16.ccc#\L	<	<
.	.	.	32fff#\JJk	[	.
*	*clefF4	*	*	*	*
*	*	*	*	*v	*v
=29	=29	=29	=29	=29
2ryy	8BB</L	.	8ddd\L)	> ]
.	8f#\ 8d\ 8F#\	.	(16.ddd\L	<
.	.	.	32fff#\JJk	[
.	8AA</	.	8ccc#\L)	>
.	8f#\J 8c#\ 8F#\	.	(16.ccc#\L	] <
.	.	.	32fff#\JJk	[
=30	=30	=30	=30	=30
2ryy	8BB</L	.	8ddd\L)	>
.	8f#\ 8d\ 8F#\	.	(16.ddd\L	] <
.	.	.	32fff#\JJk	[
.	8AA</	.	16ccc#\KL)	>
.	.	.	8aaa;\	] sf
.	8f#\J 8c#\ 8F#;\	sf	.	.
.	.	.	(16fff#\Jk	p
*	*clefG2	*	*	*
=31	=31	=31	=31	=31
2ryy	8E</L	p	16.eee\LL)	<
.	.	.	(32ddd\K	.
.	8g#\ 8e\ 8d\	.	16.bb\)	.
.	.	.	(32fff#\JJk	.
.	8AA</	.	16.eee\LL)	.
.	.	.	(32ccc#\K	.
.	8a\J 8e\ 8c#\	.	16.aa\)	.
.	.	.	(32fff#\JJk	.
!!LO:LB:g=original
=32	=32	=32	=32	=32
*xywh-#23:128,1380,2343,496	*xywh-#23:128,1380,2343,496	*	*xywh-#23:164,1146,2339,219	*
8ryy	8E</L	.	16.eee\LL)	.
.	.	.	(32ddd\K	.
8ryy	8g#\J 8e\ 8d\	.	16.bb\)	.
.	.	.	(32fff#\JJk	[
8AA/L	8r	.	16.eee\LL)	>
.	.	.	(32ccc#\K	.
8D/J	8a/ 8f#/ 8A/	.	16.aa\)	]
.	.	.	(32bb\JJk	<
=33	=33	=33	=33	=33
*^	*^	*	*	*
*	*xywh-#23:128,1380,2343,496	*xywh-#23:128,1380,2343,496	*	*	*	*
!	!	!LO:TX:b:i:t=poco rit.	!	!	!LO:TX:b:i:t=poco rit.	!
8r	2C#\	8r	8ryy	.	16ccc#\LL	.
.	.	.	.	.	16fff#\)	.
8A/	.	(8cc#/	4f#\	.	16aaa\	.
.	.	.	.	.	16bbb\JJ	.
4G#/	.	4b/	.	.	(8.cccc#\L	[
.	.	.	8e#X\	.	.	.
.	.	.	.	.	16ee#X\Jk)	.
*v	*v	*	*	*	*	*
*	*v	*v	*	*	*
=34	=34	=34	=34	=34
4A\ 4F#\	4.a/ 4.f#/ 4.c#/)	.	4ff#\	>
*	*	*	*8va	*
8FF#/	.	.	8ffff#\	]
!	!LO:TX:a:i:t=a tempo	!	!	!
.	(8qd/	ff	.	.
8r	(>16.c#/LL)	.	8r	.
.	32B#X/JJk	.	.	.
*	*	*	*X8va	*
=35	=35	=35	=35	=35
2B\ 2E#X\ 2C#\	16.c#/LL	.	2r	.
.	32d#X/K	.	.	.
.	16.e#X/	.	.	.
.	32f#/JJk	.	.	.
.	(8qa/	.	.	.
.	16.g#/LL)	.	.	.
.	32f##X/K	.	.	.
.	16.g#/	.	.	.
.	32a/JJk	.	.	.
=36	=36	=36	=36	=36
4A\ 4F#\	16.f#X/LL	.	2r	.
.	32g#/K	.	.	.
.	16.a/	.	.	.
.	32b/JJk	.	.	.
4r	8cc#\L)	.	.	.
.	(8qdd/	.	.	.
.	(>16.cc#\L)	.	.	.
.	32b#X\JJk	.	.	.
*clefG2	*	*	*	*
!!LO:LB:g=original
=37	=37	=37	=37	=37
*xywh-#23:167,2129,2347,597	*xywh-#23:167,2129,2347,597	*	*xywh-#23:138,1959,2358,184	*
16.bn/LL 16.e#X/ 16.c#/	16.cc#\LL	.	2r	.
32a/K	32dd#X\K	.	.	.
16.g#/	16.ee#X\	.	.	.
32f#/JJk	32ff#\JJk	.	.	.
.	(8qaa/	.	.	.
16.e#/LL	16.gg#\LL)	.	.	.
32d/K	32ff##X\K	.	.	.
16.c#/	16.gg#\	.	.	.
32B/JJk	32aa\JJk	.	.	.
*clefF4	*	*	*	*
=38	=38	=38	=38	=38
16.A\LL 16.F#\	16.ff#X\LL	.	2r	.
32c#\K	32gg#\K	.	.	.
16.f#\	16.aa\	.	.	.
32g#\JJk	32bb\JJk	.	.	.
8a\	8ccc#\)	.	.	.
8AA#X/ 8AAA#X/	(16fff#\LL 16ccc#\ 16ff#\	<	.	.
.	16eee\JJ	.	.	.
=39	=39	=39	=39	=39
8BB/L 8BBB/	16eee\LL 16bb\ 16ff#\	.	2r	.
.	16ddd\	.	.	.
8C#/ 8CC#/	16ddd\ 16aa#X\ 16ff#\ 16ee\	.	.	.
.	16ccc#\JJ	.	.	.
8D/ 8DD/	16ccc#\LL 16ff#\ 16dd\	.	.	.
.	16bb\	.	.	.
8E#X/J 8EE#X/	16ccc#\ 16gg#\ 16cc#\	.	.	.
.	16bb\JJ	.	.	.
=40	=40	=40	=40	=40
8F#\L 8FF#\	16bb\LL 16ff#\ 16cc#\	.	2r	.
.	16aa\	.	.	.
8G#\ 8GG#\	16aa\ 16ee#X\ 16cc#\ 16b\	.	.	.
.	16gg#\JJ	.	.	.
8A\ 8AA\	16gg#\LL 16cc#\ 16a\	.	.	.
.	16ff#\	.	.	.
8F#\J 8D\	16a\	.	.	.
.	16b\JJ	.	.	.
!!LO:LB:g=original
=41	=41	=41	=41	=41
*xywh-#23:167,2953,2368,518	*xywh-#23:167,2953,2368,518	*	*xywh-#23:178,2719,2325,266	*
8C#\L	16cc#\LL	.	2r	.
.	16ff#\	.	.	.
8f#\J 8c#\ 8A\	16aa\	.	.	.
.	16bb\JJ	.	.	.
8C#\L	8.ccc#\L	.	.	.
8c#\J 8B\ 8G#\	.	.	.	.
.	16ee#X\Jk	.	.	.
=42	=42	=42	=42	=42
4FF#/	4ff#\)	.	4r	.
.	(>16qqccc#/LL	.	.	.
.	16qqddd#X/	.	.	.
.	16qqeee#X/JJ	.	.	.
8f#\ 8c#\ 8A\ 8F#\	8fff#\ 8ff#\)	sf	8r	.
!	!	!	!LO:TX:a:i:t=risoluto	!
.	.	.	(>8qa/	.
8r	8r	.	8aa\)	f
=43	=43	=43	=43	=43
4r	8r	.	4.A/	>
.	8aa\ 8ee\ 8cc#\ 8a\	f	.	]
4A\ 4E\ 4AA\	4a/ 4e/ 4c#^>/	.	.	.
.	.	.	(8qa/	<
.	.	.	8ccc#\)	[[
=44	=44	=44	=44	=44
4r	8r	.	4.A/	>
.	8ccc#\ 8aa\ 8ee\ 8cc#\	.	.	]
4A\ 4E\ 4AA\	4a/ 4e/ 4c#^>/	.	.	.
.	.	.	(8qa/	<
.	.	.	8eee\)	[[
=45	=45	=45	=45	=45
4r	4r	.	8A/L	>
.	.	.	8a/J	]
8.D\L	(8.ff#\L 8.a\ 8.f#\	<	(8.aaa\L	<
16F#\Jk	16dd\Jk	[	16fff#\Jk)	[[
=46	=46	=46	=46	=46
4A\ 4E\ 4C#\ 4AA\	4cc#/ 4a/ 4e/)	>	(8eee~\L	>
.	.	]	8eee\J 8ccc#~\)	]
4r	4r	.	(16fff#\LL 16ddd\	.
.	.	.	16eee\ 16ccc#\)	.
.	.	.	(16ddd\ 16bb'\	.
.	.	.	16ccc#\JJ 16aa'\)	.
=47	=47	=47	=47	=47
2r	2r	.	16bb\LL 16gg#'\	.
.	.	.	16aa\ 16ff#'\	.
.	.	.	16gg#\ 16ee'\	.
.	.	.	16ff#\JJ 16dd'\	.
.	.	.	16ee\LL 16cc#'\	.
.	.	.	(16dd\ 16b'\	.
.	.	.	16cc#\ 16a'\	.
.	.	.	16b\JJ 16e'\)	.
*clefG2	*	*	*	*
!!LO:PB:g=original
=48	=48	=48	=48	=48
*xywh-#24:409,606,2350,499	*xywh-#24:409,606,2350,499	*	*xywh-#24:412,357,2387,242	*
8.c#/L	(8.a/L	<	(8.a/L 8.c#/	<
16e/Jk	16b/Jk	.	16b/Jk 16e~/)	.
8a/L	8cc#\L	.	(8cc#\L 8a~\	.
8b/J	8dd\J	[[	8dd\J 8b~\)	[
=49	=49	=49	=49	=49
4cc#\	4ee\)	>	4ee\ 4cc#\	> ]
*clefF4	*	*	*	*
4GGn/ 4GGGn/	(4ee#X/ 4cc#/ 4b/ 4e#X'>/	]	(<4ee#X\ 4bT<\	<
.	.	.	32qqa#X/LLL	[
.	.	.	32qqb/JJJ)	[[
=50	=50	=50	=50	=50
4FF#/ 4FFF#/	4ff#\ 4cc#\ 4a#X\ 4f#\)	.	4ff#\ 4a#X\ 4f#\	>
4r	4r	.	8r	]
.	.	.	(>8qf#/	<
.	.	.	8ff#\)	[[
=51	=51	=51	=51	=51
4r	8r	.	4.f#/ 4.A#X/	>
.	8ff#\ 8cc#\ 8a#X\ 8f#\	.	.	.
4F#/ 4C#/ 4FF#/	4f#/ 4c#/ 4A#X^>/	.	.	]
.	.	.	(>8qa#X/	<
.	.	.	8aa#X\)	[[
=52	=52	=52	=52	=52
4r	8r	.	4.f#/ 4.A#X/	>
.	8aa#X\ 8ff#\ 8cc#\ 8a#X\	.	.	]
4F#/ 4C#/ 4FF#/	4f#/ 4c#/ 4A#X^>/	.	.	.
.	.	.	(>8qa#X/	<
.	.	.	8ccc#\)	[[
=53	=53	=53	=53	=53
4r	4r	.	8f#/L 8A#X/	>
.	.	.	8ff#/J	]
8.BB/L	(4bb\ 4ff#\ 4dd\ 4b'\	<[	(8.fff#\L	] <
16D/Jk	.	.	16ddd\Jk)	[[
=54	=54	=54	=54	=54
4F#/ 4C#/ 4FF#/	4aa#X\ 4ff#\ 4cc#\ 4a#X\)	>	[4ccc#\	>
*	*	*	*Xtuplet	*
4r	4r	]	24ccc#\LL]	]
.	.	.	(24ccc#\	.
.	.	.	24ddd#X\	.
.	.	.	24eee#X\	.
.	.	.	24fff#\	.
.	.	.	24ggg#\JJ	.
!!LO:LB:g=original
=55	=55	=55	=55	=55
*xywh-#24:402,1385,2370,482	*xywh-#24:402,1385,2370,482	*	*xywh-#24:395,1136,2380,256	*
*	*	*	*8va	*
2r	2r	.	24aaa#X\LL)	.
.	.	.	(24eee#X\	.
.	.	.	24fff#\	.
.	.	.	24ggg#\	.
.	.	.	24aaa#\	.
.	.	.	24bbb\JJ	.
.	.	.	24cccc#\LL	.
.	.	.	24aaa#\	.
.	.	.	24bbb\	.
.	.	.	24cccc#\	.
.	.	.	24dddd#X\	.
.	.	.	24eeee#X\JJ)	.
=56	=56	=56	=56	=56
4r;	4r;	.	(4.ffff#;\	.
4r	4r	.	.	.
.	.	.	(16qqfff#/LL	.
!!LO:TX:a:B:t=P
!	!	!	!LO:TX:a:B:t=P:mod=	!
.	.	.	16qqgggn/JJ)	.
*	*	*	*X8va	*
.	.	.	16.ff#\LL	p
.	.	.	32ee#X\JJk)	.
=57	=57	=57	=57	=57
!	!LO:MO:null:mod=!LO&colon;TX&colon;a&colon;i&colon;t=leggiero	!	!	!
!	!	!	!LO:TX:b:i:t=molto grazioso	!
2ryy	8A#X</L	p	16.ff#\LL	.
.	.	.	32gg#X\K	.
!	!LO:TX:b:i:rj:t=leggiero:mod=	!	!	!
.	8cc#\ 8f#\ 8e\	.	16.aa#X\	.
.	.	.	32bb\JJk	.
.	.	.	(16qqccc#/LL	.
.	.	.	16qqddd/JJ	.
.	8F#</	.	16.ccc#\LL)	.
.	.	.	32bb#X\K	.
.	8a#X\J 8f#\ 8e\	.	16.ccc#\	.
.	.	.	32ddd\JJk	.
=58	=58	=58	=58	=58
2ryy	8B</L	.	16.bbn\LL	.
.	.	.	32ccc#\K	.
.	8b\ 8f#\ 8d\	.	16.ddd\	.
.	.	.	32eee\JJk	.
*	*	*	*8va	*
.	8BB</	.	8fff#\L	.
.	8b\J 8f#\ 8d\	.	(16.fff#\L	<
.	.	.	32bbb\JJk	[[
=59	=59	=59	=59	=59
2ryy	8E</L	.	8gggn\L)	>
.	8b\ 8gn\ 8B\	.	(16.ggg\L	] <
.	.	.	32bbb\JJk	.
.	8D</	.	8fff#\L)	[ >
.	8b\J 8f#\ 8B\	.	(16.fff#\L	] <
.	.	.	32bbb\JJk	[[
=60	=60	=60	=60	=60
8ryy	8E</L	.	8gggn\L)	>
8ryy	8b\J 8gn\ 8B\	.	(16.ggg\L	] <
.	.	.	32bbb\JJk	.
8D\L	8r	.	8fff#\L)	[ >
8D#X\J	(8ff#\ 8b\ 8f#\	<	(16.bbb\L	] <
.	.	.	32aaa\JJk	.
!!LO:LB:g=original
=61	=61	=61	=61	=61
*	*^	*	*	*
*xywh-#24:415,2161,2367,515	*xywh-#24:415,2161,2367,515	*xywh-#24:415,2161,2367,515	*	*xywh-#24:402,1925,2424,249	*
8E\L	8rcc	4ggn\ 4gn\	.	16.gggn\LL)	.
.	.	.	.	(32eee\K	.
8A\J	4cc#^/	.	.	16.ccc#\)	.
.	.	.	.	(32aaa\JJk	.
8D\L	.	4ff#\ 4f#\	.	16.fff#\LL)	.
.	.	.	.	(32ddd\K	.
8Gn\J	[<8b^/	.	.	16.bb\)	.
.	.	.	.	(32ggg\JJk	.
*	*v	*v	*	*	*
*	*	*	*X8va	*
=62	=62	=62	=62	=62
*	*^	*	*	*
*	*	*xywh-#24:415,2161,2367,515	*	*	*
8C#\L	8b/L]	4ee\ 4e\	.	16.eee\LL)	.
.	.	.	.	(32ccc#\K	.
8F#\J	8a#X/J	.	.	16.aa#X\)	.
.	.	.	[	(32fff#\JJk	.
8ryy	8BB</L	8ryy	>	16.ddd\LL)	[ >
.	.	.	.	(32bb\K	.
8ryy	8dd\J 8b\ 8f#\ 8d\)	8ryy	.	16.ff#\)	.
.	.	.	]	(32ddd\JJk	] <
*	*v	*v	*	*	*
=63	=63	=63	=63	=63
2ryy	8C#</L	<	16ccc#\LL)	.
.	.	.	(16ee#X\	.
.	8cc#\ 8b\ 8e#X\	.	16gg#\	.
.	.	.	16ccc#\JJ	.
.	8c#</	.	16aaa#X^\LL	.
.	.	.	16ccc#\	.
.	8cc#\J 8b\ 8e#\	.	16bb\	.
.	.	.	16ggg#\JJ	.
=64	=64	=64	=64	=64
2ryy	8F#</L	.	16fff#\LL)	.
.	.	.	(16aa#X\	.
.	8cc#\ 8a#X\ 8f#\ 8c#\	.	16ccc#\	.
.	.	.	16fff#\JJ	.
.	8C#</	.	16aaa#X^\LL	.
.	.	.	16ccc#\	.
.	8cc#\J 8b\ 8e#X\ 8c#\	.	16bb\	.
.	.	.	16ggg#\JJ	.
=65	=65	=65	=65	=65
2ryy	8F#</L	.	16fff#\LL	.
.	.	.	16aa#X\	.
.	8cc#\ 8a#X\ 8f#\ 8c#\	.	16ccc#\	.
.	.	.	16fff#\JJ	.
.	8C#</	.	16aaa#X^\LL	.
.	.	.	16ccc#\	.
.	8cc#\J 8b\ 8e#X\ 8c#\	.	16bb\	.
.	.	.	16ggg#\JJ)	.
=66	=66	=66	=66	=66
.	.	.	(8qeee#X/	f >
[2c#\ [2F#\	8ff#\ 8a#X\ 8f#\	f	[2fff#T\)	.
.	8r	.	.	.
.	(4cc#\ [4a#\	p	.	.
=67	=67	=67	=67	=67
2c#\] 2F#\]	4ff#\ 4a#\])	.	16fff#\LL]	]
.	.	.	(16aa#X\	] p
.	.	.	16ccc#\	<
.	.	.	16fff#\JJ	.
.	(4ggn\ [4b\	.	16eee\LL	.
.	.	.	16ggn\	.
.	.	.	16bb\	.
.	.	.	16eee\JJ)	[
!!LO:LB:g=original
=68	=68	=68	=68	=68
*	*	*	*xywh-#24:395,2730,2370,252	*
.	.	.	(8qccc#/	>
*^	*	*	*	*
*xywh-#24:432,2960,2360,492	*xywh-#24:432,2960,2360,492	*xywh-#24:432,2960,2360,492	*	*	*
4d/	[2F#\	4ff#\ 4b\]	.	[2dddT\)	.
4f#/	.	4dd\ [4b\	.	.	.
=69	=69	=69	=69	=69	=69
*	*	*^	*	*	*
*	*	*	*xywh-#24:432,2960,2360,492	*	*	*
4d/	2F#\_	[2ff#/	4b\]	.	16ddd\LL]	]
.	.	.	.	.	(16ff#\	<
.	.	.	.	.	16bb\	.
.	.	.	.	.	16ddd\JJ)	.
[4e/	.	.	[4a#X\	.	16ccc#\LL	.
.	.	.	.	.	(16ee\	.
.	.	.	.	.	16ff#\	.
.	.	.	.	.	16fff#\JJ)	[
*v	*v	*	*	*	*	*
*	*v	*v	*	*	*
=70	=70	=70	=70	=70
4e\] 4F#\]	4ff#\] 4a#\])	.	(4.fff#\	>
4r	4r	.	.	]
.	.	.	(16qqff#/LL	.
!!LO:TX:a:B:t=Q
!	!	!	!LO:TX:a:B:t=Q:mod=	!
!	!	!	!LO:TX:b:i:t=delicatamente	!
.	.	.	16qqggn/JJ	.
.	.	.	16.ff#\LL)	.
.	.	.	32ee#X\JJk)	.
=71	=71	=71	=71	=71
2ryy	8A#X</L	.	16.ff#\LL	.
.	.	.	32gg#X\K	.
.	8cc#\ 8f#\ 8e\	.	16.aa#X\	.
.	.	.	32bb\JJk	.
.	.	.	(16qqccc#/LL	.
.	.	.	16qqddd/JJ	.
.	8F#</	.	16.ccc#\LL)	.
.	.	.	32bb#X\K	.
.	8a#X\J 8f#\ 8e\	.	16.ccc#\	.
.	.	.	32ddd\JJk	.
=72	=72	=72	=72	=72
2ryy	8B</L	<	16.bbn\LL	.
.	.	.	32ccc#\K	.
.	8b\ 8f#\ 8d\	.	16.ddd\	.
.	.	.	32eee\JJk	.
*	*	*	*8va	*
.	8BB</	.	8fff#\L	.
.	8b\J 8f#\ 8d\	.	(16.fff#\L	<
.	.	.	32bbb\JJk	[[
=73	=73	=73	=73	=73
2ryy	8E</L	.	8gggn\L)	>
.	8b\ 8gn\ 8B\	.	(16.ggg\L	] <
.	.	.	32bbb\JJk	[
.	8D</	.	8fff#\L)	>
.	8b\J 8f#\ 8B\	.	(16.fff#\L	] <
.	.	.	32bbb\JJk	[
=74	=74	=74	=74	=74
2ryy	8E</L	.	8gggn\L)	>
.	8b\ 8gn\ 8B\	.	(16.ggg\L	] <
.	.	.	32bbb\JJk	[
.	8D</	.	16fff#\KL)	>
.	.	.	8dddd;\	] sf
.	8b\J 8f#\ 8B;\	sf	.	.
.	.	.	(16bbb\Jk	p
!!LO:PB:g=original
=75	=75	=75	=75	=75
*xywh-#25:145,590,2346,507	*xywh-#25:145,590,2346,507	*	*xywh-#25:130,336,2413,242	*
2ryy	8A</L	p	16.aaa\LL)	<
.	.	.	(32gggn\K	.
.	8cc#\ 8a\ 8gn\	.	16.eee\)	.
.	.	.	(32bbb\JJk	.
.	8D</	.	16.aaa\LL)	.
.	.	.	(32fff#\K	.
.	8dd\J 8a\ 8f#\	.	16.ddd\)	.
.	.	.	(32bbb\JJk	.
=76	=76	=76	=76	=76
8ryy	8A</L	.	16.aaa\LL)	.
.	.	.	(32gggn\K	.
8ryy	8cc#\J 8a\ 8gn\	.	16.eee\)	.
.	.	.	(32bbb\JJk	.
8D\L	8ryy	.	16.aaa\LL)	[ >
.	.	.	(32fff#\K	.
8Gn\J	8dd/ 8b/ 8d/	.	16.ddd\)	.
.	.	.	(32eee\JJk	] <
=77	=77	=77	=77	=77
*^	*^	*	*	*
*	*xywh-#25:145,590,2346,507	*xywh-#25:145,590,2346,507	*	*	*	*
!	!	!LO:TX:b:i:t=poco rit.	!	!	!LO:TX:b:i:t=poco rit.	!
8r	2F#\	8r	8ryy	.	16fff#\LL	.
.	.	.	.	.	16bbb\)	.
8d/	.	(8ff#/	4b\	.	16dddd\	.
.	.	.	.	.	16eeee\JJ	.
4c#/	.	4ee/	.	.	(8.ffff#\L	[
.	.	.	8a#X\	.	.	.
.	.	.	.	.	16aaa#X\Jk)	.
*v	*v	*	*	*	*	*
*	*v	*v	*	*	*
=78	=78	=78	=78	=78
4BB;/	4.dd#X/ 4.b/ 4.f#/ 4.d#X;/)	.	4.bbb;\	>
8B\	.	.	.	]
*	*	*	*X8va	*
8r	8r	.	8r	.
=79||	=79||	=79||	=79||	=79||
!!!key: B
*k[f#c#g#d#a#]	*k[f#c#g#d#a#]	*	*k[f#c#g#d#a#]	*
!!LO:TX:a:B:t=Maggiore
!	!LO:TX:a:i:t=P:problem:mixed beam	!	!LO:TX:a:i:t=Maggiore.:mod=	!
[2BB\	(8F#</L	mf <	(4.dd#\	mf <
.	8B</	.	.	.
.	8d#\	.	.	.
.	.	.	(8qff#/	.
.	8g#\J	[[	8ee\))	[[
=80	=80	=80	=80	=80
*^	*	*	*	*
*	*xywh-#25:145,590,2346,507	*	*	*	*
2BB\\]	4ryy	8f#/L	>	(4.dd#\	>
.	.	8b/ 8d#/	.	.	.
.	8B//L	(>8dd#/)	]	.	]
.	8Dn//J	8gg#/J	<	8e#X/)	<
=81	=81	=81	=81	=81	=81
*	*	*^	*	*	*
*	*	*	*xywh-#25:145,590,2346,507	*	*	*
[<<2BB\\	8D#X//L	8ff#/L	4.ryy	.	(8f#\L	.
.	8F#//	8dd#/J	.	.	8b\	.
.	8B//J	[4b/	.	.	8dd#\	.
.	8ryy	.	8e\	[[	8gg#\J)	[[
=82	=82	=82	=82	=82	=82	=82
2BB\\]	8ryy	8b/]L 8d#/)	8ryy	>	(4.ff#\	>
!LO:TX:a:i:t=P:problem:mixed beam	!	!	!	!	!	!
.	8B/L	(>8dd#/ 8b/	8ryy	]	.	.
.	8c#/	8ff#/ 8a#/	8ryy	.	.	]
.	8d#>\J	8b/J 8a#/	8ryy	.	8ff##X\)	<
*	*	*v	*v	*	*	*
!!LO:LB:g=original
=83	=83	=83	=83	=83	=83
*xywh-#25:112,1343,2346,496	*xywh-#25:112,1343,2346,496	*xywh-#25:112,1343,2346,496	*	*xywh-#25:130,1115,2378,257	*
[<<2E\\	8E//L	4b/ 4g#/ 4e/)	.	(4.gg#\	.
.	8G#//	.	.	.	.
.	8B//	4r	.	.	.
.	.	.	.	(8qbb/	.
.	8d#//J	.	.	8aan\))	[
=84	=84	=84	=84	=84	=84
2E\\]	4e//	(8g#\L	.	(4.gg#\	>
.	.	8b\	.	.	.
!	!LO:SIC:s=4r	!	!	!	!
.	4rb	8ee\J)	.	.	]
.	.	8r	.	8f##X/)	<
*v	*v	*	*	*	*
=85	=85	=85	=85	=85
!	!LO:TX:a:i:t=P:problem:mixed beam	!	!	!
[<2C#\	(8E</L	.	(8g#\L	.
.	8G#</	.	8b#X\	.
.	8e\	.	8cc#\	.
.	8c#\J	.	8aa#X\J)	[
=86	=86	=86	=86	=86
2C#\]	8e/L	.	[4gg#\	>
.	8g#/	.	.	.
.	8b/	.	8gg#\L]	]]
.	[8ee/J	.	(16ee\L	<
.	.	.	16dd#\JJ	.
=87	=87	=87	=87	=87
*^	*	*	*	*
*	*xywh-#25:112,1343,2346,496	*	*	*	*
!LO:SIC:s=[<<2F#\\	!	!	!	!	!
[2F#\\	8F#//L	8ee\L]	.	8cc#~\L	.
.	8A#//	8cc#\J	.	8cc#~\J)	.
.	8c#//	4a#/)	.	(8cc#\L	.
.	8e//J	.	.	16dd#\L	.
.	.	.	.	16ee\JJ)	[
=88	=88	=88	=88	=88	=88
2F#\\]	2d#^>>//	8r	.	([4gg#\	>
.	.	(>8b#X/L	.	.	.
.	.	8an/	.	16gg#\LL]	]
.	.	.	.	16ff#\	<
.	.	8f#/J	.	16ee\	.
.	.	.	.	16dd#\JJ)	.
=89	=89	=89	=89	=89	=89
!LO:SIC:s=[<<2F#\\	!	!	!	!	!
[2F#\\	2e^>>//	8r	.	8cc#\L	.
.	.	8cc#/L	.	8cc#\J	.
.	.	8a#X/	.	(8cc#\L	.
.	.	8f#/J	.	16dd#\L	.
.	.	.	.	16ee\JJ)	[
=90	=90	=90	=90	=90	=90
2F#\\]	4d#^>>//	8r	.	([4gg#\	>
.	.	8b#X/L	.	.	.
.	4B#X^>>//	8an/	.	16gg#\LL]	]
.	.	.	.	16ff#\)	<
.	.	8g#/J	.	16ee\	.
.	.	.	.	16dd#\JJ	.
*v	*v	*	*	*	*
!!LO:LB:g=original
=91	=91	=91	=91	=91
*xywh-#25:105,2114,2378,539	*xywh-#25:105,2114,2378,539	*	*xywh-#25:137,1893,2396,253	*
2E\	(>8c#/L)	.	4cc#\	[[
.	8e/	<	.	.
.	8g#/	.	[4ccc#\	<
.	8cc#/J	.	.	.
=92	=92	=92	=92	=92
!	!	!	!LO:TX:b:i:t=appassionato	!
2E#X\	8dn/L	.	8ccc#\L]	.
.	8g#/	.	(8bb\	.
.	8b/	.	8aa#\	.
.	8ddn/J	.	8gg#\J)	.
=93	=93	=93	=93	=93
2F#\	8d#X/L	.	(8gg#^\L	.
.	8f#/	.	8ff#^\)	.
.	8b/	.	8dd#^\	.
.	8dd#/J	.	8b^\J	.
=94	=94	=94	=94	=94
.	(>16qqe/LL	.	.	.
.	16qqf#/	.	.	.
.	16qqa#/JJ	.	.	.
4FF#/	4ee\))	sf	(8a#^>/L	.
.	.	.	8f#^>/)	.
4r	4r	.	8e#X^>/	.
.	.	.	8en^>/J	.
=95	=95	=95	=95	=95
!!!OMD:
!!!OMD-mod: Largamente
!!LO:TX:a:B:t=R
!	!	!	!LO:TX:a:B:t=R:mod=	!
!	!LO:TX:a:i:t=largamente:mod=	!	!LO:TX:a:i:t=largamente:mod=	!
[2BB/	16r	p	(4.d#/	p <
.	(16f#/LL	<	.	.
.	16b/	.	.	.
.	16cc#/JJ	.	.	.
.	16dd#\LL	.	.	.
.	16ff#\	.	.	.
.	.	.	(8qf#/	.
.	16gg#\	.	8e/))	[
.	16bb\JJ	[[	.	.
=96	=96	=96	=96	=96
2BB/_	16ff#/LL	>	(4.d#/	>
.	16d#/	.	.	.
.	16f#/	.	.	.
.	16a#/JJ	.	.	.
.	(16b/LL)	.	.	.
.	16f#/	] <	.	]
.	16cc#/ 16e/	.	8A#/)	<
.	16f#/JJ	.	.	.
=97	=97	=97	=97	=97
*^	*	*	*	*
*	*xywh-#25:105,2114,2378,539	*	*	*	*
4BB/]	4ryy	16dd#/LL 16d#/	.	(8B/L	.
.	.	16f#/	.	.	.
.	.	16ee/ 16cc#/	.	8c#/	.
.	.	16f#/JJ	.	.	.
!LO:SIC:s=4B\\	!	!	!	!	!
4B\	8rb	16ff#\LL 16b\	.	8d#/	.
.	.	16b\	.	.	.
!	!LO:SIC:s=8e//	!	!	!	!
.	8e/	16bb\	.	8g#/J)	[
.	.	16b\JJ	[[	.	.
*v	*v	*	*	*	*
!!LO:LB:g=original
=98	=98	=98	=98	=98
*xywh-#25:109,2971,2431,492	*xywh-#25:109,2971,2431,492	*	*xywh-#25:127,2761,2349,217	*
2d#\ 2B^\	16ff#\LL)	.	(4.f#/	>
.	(16b\	.	.	.
.	16dd#\	.	.	.
.	16ee\JJ	.	.	.
.	16aan\LL 16ff#\	.	.	.
.	16dd#\	.	.	]
.	16cc#\	.	8f##X/)	<
.	16b\JJ	.	.	.
=99	=99	=99	=99	=99
*^	*	*	*	*
*	*xywh-#25:109,2971,2431,492	*	*	*	*
[2B\\ [2E\\	4e//	16gg#\LL)	.	(4.g#/	.
.	.	(16g#\	.	.	.
.	.	16b\	.	.	.
.	.	16dd#\JJ	.	.	.
.	4rg	16ee\LL	.	.	.
.	.	16gg#\	.	.	.
.	.	16ff#\	.	8an/)	[
.	.	16dd#\JJ	.	.	.
=100	=100	=100	=100	=100	=100
4E\\\]	16B//LL]	4ee\)	.	(4.g#/	>
.	N(>>16G#//	.	.	.	.
.	16B//	.	.	.	.
.	16e//JJ	.	.	.	.
4r	4ryy	16g#\LL	.	.	.
.	.	16b\	.	.	]
.	.	16ee\	.	8F##X/)	<
.	.	16cc#\JJ	.	.	.
*v	*v	*	*	*	*
=101	=101	=101	=101	=101
4BB#X//	16g#/LL	.	(8G#/L	.
.	16B#X/	.	.	.
.	16d#/	.	8B#X/	.
.	16g#/JJ	.	.	.
4GG#//	16b#X\LL 16f#\	.	8d#/	.
.	16d#\	.	.	.
.	16B#\	.	8g#/J)	[
.	16G#</JJ	.	.	.
=102	=102	=102	=102	=102
2G#\ 2C#\	(>16cc#/LLN)	.	(4f#/	>
.	16g#/	.	.	.
.	16cc#/	.	.	.
.	16b#X/JJ	.	.	.
.	16cc#/LL	.	4e/)	]
.	16g#/	.	.	.
.	16e/	.	.	.
.	16c#/JJ)	.	.	.
!!LO:PB:g=original
=103	=103	=103	=103	=103
*^	*^	*	*	*
*xywh-#26:385,547,2392,530	*xywh-#26:385,547,2392,530	*xywh-#26:385,547,2392,530	*xywh-#26:385,547,2392,530	*	*xywh-#26:385,345,2362,224	*
4F#/	4AA#\	([2f#/ 2e/ 2c#/	4ryy	p	8r	.
.	.	.	.	.	8f#/L	p <
!LO:TX:a:i:t=m.d.	!	!	!	!	!	!
4ryy	4FF#\	.	4A#</	.	8f#/	.
.	.	.	.	.	8f#/J	[
*	*	*v	*v	*	*	*
=104	=104	=104	=104	=104	=104
4B/	2BB\	4f#/] 4d#/)	.	(8f#/L	>
.	.	.	.	8dd#/	] <
8G#/L	.	(>4e#X/ 4dn/	.	8b/	.
[8B/J	.	.	.	8g#/J)	[[
=105	=105	=105	=105	=105	=105
*	*	*^	*	*	*
*	*	*	*xywh-#26:385,547,2392,530	*	*	*
8B/L]	8r	8r	4c#\	.	(4.f#/	>
8A#/	8FF#\L	8f#'^/L	.	.	.	.
8B/	8GG#\	8f#'/	4e\	.	.	.
8c#/J	8AA#\J	8f#'/J	.	.	8c#/)	.
=106	=106	=106	=106	=106	=106	=106
4B/	2BB\	8f#/L)	4d#\	.	4d#/	]
.	.	(8dd#/	.	.	.	.
!LO:TX:a:i:t=m.s.	!	!	!	!	!	!
8G#/L	.	8b/	4dn\	.	4e#X/	.
8B/J	.	8g#/J	.	.	.	.
=107	=107	=107	=107	=107	=107	=107
4F#/	4AA#\	[2f#/ 2e/ 2c#/	4r	.	8r	.
.	.	.	.	.	8f#/L	<
!LO:TX:a:i:t=m.d.	!	!	!	!	!	!
4ryy	4FF#\	.	4A#</	.	8f#/	.
.	.	.	.	.	8f#/J	[
*	*	*v	*v	*	*	*
=108	=108	=108	=108	=108	=108
4B/	2BB\	4f#/] 4d#/)	.	(8f#/L	>
.	.	.	.	8dd#/	] <
8G#/L	.	(>4e#X/ 4dn/	.	8b/	.
[8B/J	.	.	.	8g#/J)	[
=109	=109	=109	=109	=109	=109
*	*	*^	*	*	*
*	*	*	*xywh-#26:385,547,2392,530	*	*	*
8B/L]	8r	8r	4c#\	.	(4.f#/	>
8A#/	8FF#\L	8f#'^/L	.	.	.	.
8B/	8GG#\	8f#'/	4e\	.	.	.
8c#/J	8AA#\J	8f#'/J	.	.	8c#/)	.
=110	=110	=110	=110	=110	=110	=110
4B/	4BB\	8f#/L	4d#\	.	4.d#/	]
.	.	8dd#/	.	.	.	.
4r	4ryy	8b/J)	4ryy	.	.	.
.	.	8r	.	.	(8ff#\ 8f#\	f <
*v	*v	*	*	*	*	*
*	*v	*v	*	*	*
=111	=111	=111	=111	=111
!	!	!	!LO:TX:b:i:t=grandioso	!
4GG#/	(>2b/ 2d#/ 2B/	f <	8gg#\L 8g#\	.
.	.	.	8aa#X\ 8a#X\)	.
4G#\	.	.	8bb\ 8b\	.
.	.	[[	8ccc#\J 8cc#\	[[
!!LO:LB:g=original
=112	=112	=112	=112	=112
*^	*^	*	*	*
*xywh-#26:358,1319,2358,553	*xywh-#26:358,1319,2358,553	*xywh-#26:358,1319,2358,553	*xywh-#26:358,1319,2358,553	*	*xywh-#26:341,1117,2389,214	*
2A#/	8F##X\L	2a#/)	8d#\L	>	4.ddd#\ 4.dd#\	>
.	8E#X\J	.	8e#X\J	.	.	.
.	4D#\	.	4f##X\	.	.	.
.	.	.	.	]	(8ddd#\ 8dd#\	] <
=113	=113	=113	=113	=113	=113	=113
4A#/	8C##X\L	(4a#/	8g#\	<	8eee#X\L 8ee#X\	.
.	8C#X\	.	4d#\	.	8fff##X\ 8ff##X\)	.
8G#//L	8BB\	8g#/L	.	.	8ggg#\ 8gg#\	.
8c#>\J	8FF##X\J	8cc#/J 8d#/	8ryy	[[	8aaa#\J 8aa#\	[
*v	*v	*	*	*	*	*
=114	=114	=114	=114	=114	=114
*	*	*^	*	*	*
*	*	*	*xywh-#26:358,1319,2358,553	*	*	*
!	!LO:TX:b:i:t=m.d	!	!	!	!	!
4GG#\	8a#X/L	4d#\	8A#X</L	>	(8cccc#\L 8ccc#\	>
.	8b/)	.	8B</	]	8bbb\ 8bb\)	]]
8C#\L	(8f##X/	8e\L	8F##X</	.	8aaa#\ 8aa#\	<
8BB\J	[8g#/J	[8d#\J	[8G#</J	.	8ggg#\J 8gg#\	.
*	*v	*v	*v	*	*	*
=115	=115	=115	=115	=115
8BB#X\L	8g#/]L 8d#/] 8G#</]	.	8fff#\L 8ff#\	.
8C#\	8g#/ 8e/ 8G#</	.	8eeen\ 8een\	.
8F#\	8an/ 8B#X/ 8An</	.	8ddd#\ 8dd#\	.
8E\J	8g#/J 8c#/ 8G#</	.	8ccc#\J 8cc#\	[
=116	=116	=116	=116	=116
[<2D#\ [2FF#\	[2f#/ [2d#/ [>2Bn</ [>2F#</	.	[2fff#\ 2ff#\	>
=117	=117	=117	=117	=117
2D#\_< 2FF#\_	2f#/_ 2d#/_ 2B</_> 2F#</_>	.	16fff#\LL]	]
.	.	.	(16eee#X\	.
.	.	.	16eeen\	.
.	.	.	16ddd#\JJ	.
.	.	.	16ccc#\LL	.
.	.	.	16bb\	.
.	.	.	16aa#\	.
.	.	.	16gg#\JJ	.
=118	=118	=118	=118	=118
2D#\] 2FF#\]	2f#/] 2d#/] 2B</] 2F#</]	.	16ff#\LL	.
.	.	.	16ee#X\	.
.	.	.	16een\	.
.	.	.	16dd#\JJ	.
.	.	.	16cc#/LL	.
.	.	.	16b/	.
.	.	.	16a#/	.
.	.	.	16g#/JJ)	.
=119	=119	=119	=119	=119
*	*	*	*tuplet	*
[<2F#\ [2FF#\	[2f#/ [>2e/ [>2B</	>	(12f#/L	<
.	.	.	12g#/	.
.	.	.	12f#/J	.
.	.	.	8e#X/L	.
.	.	.	8f#/J)	[
!!LO:LB:g=original
=120	=120	=120	=120	=120
*xywh-#26:398,2124,2405,580	*xywh-#26:398,2124,2405,580	*	*xywh-#26:388,1889,2429,255	*
*	*	*	*	*^
.	.	.	(>8qf#/	>	.
2F#\] 2FF#\]	2f#/] 2e/] 2B</]	.	4.gg#\)	.	.
.	.	.	8g#/	] <	>
*	*	*	*	*v	*v
=121	=121	=121	=121	=121
2F#\ 2FF#\	[2f#/ [>2e/ [>2A#</	.	(12a#/L	.
.	.	.	12b/	.
.	.	.	12a#/J	.
.	.	.	8g##X/L	.
.	.	.	8a#/J)	[
=122	=122	=122	=122	=122
.	.	.	(>8qa#/	>
2FF#\ 2FFF#\	2f#/] 2e/] 2A#</]	.	(4.dd#\)	.
.	.	.	8cc#\)	.
=123	=123	=123	=123	=123
*	*^	*	*	*
*	*	*xywh-#26:398,2124,2405,580	*	*	*
!!LO:TX:a:B:t=S
!	!LO:TX:a:i:t=ben marcato il canto	!	!	!	!
!	!LO:TX:b:i:t=tranquillo	!	!	!LO:TX:a:B:t=S:mod=	!
8B\ 8F#\ 8BB\	8d#\\)	(>4.dd#//	p	(16b/LL	]
!	!	!	!	!LO:TX:b:i:t=grazioso e tranquillo	!
.	.	.	.	16d#/	p <
8r	8rA	.	.	16f#/	.
.	.	.	.	16b/JJ	.
8r	8rA	.	.	16dd#\LL	.
.	.	.	.	16ee\	.
.	.	(8qff#/	.	.	.
8F#\ 8BB\	8d#\\	8ee//)	.	16ff#\	.
.	.	.	.	(16qqgg#/LL	.
.	.	.	.	16qqaa#/JJ	.
.	.	.	.	16gg#\JJ)	[[
=124	=124	=124	=124	=124	=124
8F#\ 8BB\	8d#\\	4.dd#//)	.	16ff#\LL)	>
.	.	.	.	(16fff#\	] <
8r	8r	.	.	16ccc##X\	.
.	.	.	.	16ddd#\JJ	.
8r	8r	.	.	16aa#\LL	.
.	.	.	.	16bb\	.
8F#\ 8BB\	(8e#\\ 8d#\\	8ryy	.	16dd#\	.
.	.	.	.	16gg#\JJ	[
*	*v	*v	*	*	*
=125	=125	=125	=125	=125
8F#\ 8BB\	(>8f#/L 8d#/)	.	16ff#/LL)	>
.	.	.	(16B/	] <
8r	8b/	.	16d#/	.
.	.	.	16f#/JJ	.
4r	8dd#/	.	16a#X\LL	.
.	.	.	16b\	.
.	8gg#/J	.	16dd#\	.
.	.	.	(16qqee/LL	.
.	.	.	16qqff#/JJ)	.
.	.	.	16ee\JJ	[[
=126	=126	=126	=126	=126
*	*^	*	*	*
*	*	*xywh-#26:398,2124,2405,580	*	*	*
!	!LO:TX:b:i:t=m.s.	!	!	!	!
2r	4.ff#/)	(8d#\L	.	16dd#\LL)	>
.	.	.	.	(16ddd#\	] <
.	.	8f#\	.	16aa#\	.
.	.	.	.	16bb\JJ	.
.	.	8b\J)	.	16ee#X\LL	.
.	.	.	.	16ff#\	.
.	N(8dd#/	8r	.	16dd#\	.
.	.	.	.	16b\JJ	[[
*	*v	*v	*	*	*
=127	=127	=127	=127	=127
8e\ 8c#\ 8F#\	8a#\L	.	16a#\LL)	>
.	.	.	(16cc#\	] <
8r	8cc#\	.	16ee\	.
.	.	.	16ff#\JJ	.
.	.	.	(16qqggn/LL	.
.	.	.	16qqaan/JJ)	.
8r	8ee\	.	16gg\LL	.
.	.	.	16ee\	.
8e\ 8c#\ 8F#\	8ggn\J	.	16cc#\	.
.	.	.	16b\JJ	[[
!!LO:LB:g=original
=128	=128	=128	=128	=128
*	*^	*	*	*
*xywh-#26:355,2922,2469,557	*xywh-#26:355,2922,2469,557	*xywh-#26:355,2922,2469,557	*	*xywh-#26:395,2691,2402,251	*
8e\ 8c#\ 8F#\	(8aa#/L	4.ff#\N)	.	16a#\LL)	>
.	.	.	.	(16cc#\	] <
8r	8ccc#/	.	.	16ee\	.
.	.	.	.	16ff#\JJ	.
.	.	.	.	(16qqgg#X/LL	.
.	.	.	.	16qqaa#X/JJ)	.
8r	8eee/	.	.	16gg#\LL	.
.	.	.	.	16ee\	.
8e\ 8c#\ 8F#\	8ggg#X/J	8r	.	16cc#\	.
.	.	.	.	16b\JJ)	[
*	*v	*v	*	*	*
=129	=129	=129	=129	=129
8e\ 8c#\ 8F#\	8fff#\)	.	16a#\LL	>
.	.	.	(16cc#\	]
8r	8r	.	16ee\	.
.	.	.	16ff#\JJ	.
*	*	*	*8va	*
8r	8r	.	16eeee\LL)	.
.	.	.	(16cccc#\	.
8F#/ 8FF#/	8f#/ 8e/ 8A#/	.	16aaa#\	.
.	.	.	16fff#\JJ	.
*	*	*	*X8va	*
=130	=130	=130	=130	=130
8F#/ 8FF#/	8f#/ 8e/ 8A#/	.	16eee\LL	.
.	.	.	16ccc#\	.
8r	8r	.	16aa#\	.
.	.	.	16ff#\JJ	.
8r	8r	.	16gg#\LL	<
.	.	.	16a#\)	.
8F#/ 8FF#/	8f#/ 8e/ 8A#/	.	16ff#\	.
.	.	.	16ee\JJ	[
=131	=131	=131	=131	=131
*	*^	*	*	*
*	*	*xywh-#26:355,2922,2469,557	*	*	*
8B\ 8F#\ 8BB\	(4.dd#/	8d#\	.	16dd#'/LL	>
.	.	.	.	(16d#/	] <
8r	.	8r	.	16f#/	.
.	.	.	.	16b/JJ	.
8r	.	8r	.	16dd#\LL	.
.	.	.	.	16ee\	.
.	(<8qff#/	.	.	.	.
8F#\ 8BB\	8ee/)	8d#\	.	16ff#\	.
.	.	.	.	(16qqgg#/LL	.
.	.	.	.	16qqaa#/JJ)	.
.	.	.	.	16gg#\JJ	[[
=132	=132	=132	=132	=132	=132
8F#\ 8BB\	4.dd#/)	8d#\	.	16ff#\LL)	>
.	.	.	.	(16fff#\	] <
8r	.	8r	.	16ccc##X\	.
.	.	.	.	16ddd#\JJ	.
8r	.	8r	.	16aa#\LL	.
.	.	.	.	16bb\	.
8F#\ 8BB\	(>8e#X/ 8d#/	8ryy	.	16dd#\	.
.	.	.	.	16gg#\JJ	[[
*	*v	*v	*	*	*
=133	=133	=133	=133	=133
8F#\ 8BB\	(>8f#/L 8d#/)	.	16ff#/LL)	>
.	.	.	(16B/	] <
8r	8b/	.	16d#/	.
.	.	.	16f#/JJ	.
4r	8dd#/	.	16a#X\LL	.
.	.	.	16b\	.
.	8gg#/J	.	16dd#\	.
.	.	.	(16qqee/LL	.
.	.	.	16qqff#/JJ)	.
.	.	.	16ee\JJ	[[
!!LO:PB:g=original
=134	=134	=134	=134	=134
*	*^	*	*	*
*xywh-#27:125,554,2378,524	*xywh-#27:125,554,2378,524	*xywh-#27:125,554,2378,524	*	*xywh-#27:151,335,2360,258	*
!	!	!LO:TX:b:i:t=m.s.	!	!	!
2r	4.ff#/)	(8d#\L	.	16dd#\LL)	>
.	.	.	.	(16ddd#\	] <
.	.	8f#\	.	16aa#\	.
.	.	.	.	16bb\JJ	.
.	.	8b\J)	.	16ee#X\LL	.
.	.	.	.	16ff#\	.
.	(8dd#/	8r	.	16dd#\	.
.	.	.	.	16b\JJ	[
*	*v	*v	*	*	*
=135	=135	=135	=135	=135
8e\ 8c#\ 8F#\	8a#\L	.	16a#\LL)	>
.	.	.	(16cc#\	] <
8r	8cc#\	.	16ee\	.
.	.	.	16ff#\JJ	.
.	.	.	(16qqggn/LL	.
.	.	.	16qqaan/JJ	.
8r	8ee\	.	16ggn\LL)	.
.	.	.	16ee\	.
8e\ 8c#\ 8F#\	8ggn\J	.	16cc#\	.
.	.	.	16b\JJ	[
=136	=136	=136	=136	=136
*	*^	*	*	*
*	*	*xywh-#27:125,554,2378,524	*	*	*
8e\ 8c#\ 8F#\	(4.ff#\)	8aa#/L	.	16a#\LL)	>
.	.	.	.	(16cc#\	] <
8r	.	8ccc#/	.	16ee\	.
.	.	.	.	16ff#\JJ	.
.	.	.	.	(16qqgg#X/LL	.
.	.	.	.	16qqaa#X/JJ	.
8r	.	8eee/	.	16gg#\LL)	.
.	.	.	.	16ee\	.
8e\ 8c#\ 8F#\	8rg	8ggg#X/J	.	16cc#\	.
.	.	.	.	16b\JJ)	[
*	*v	*v	*	*	*
=137	=137	=137	=137	=137
8e\ 8c#\ 8F#\	8fff#\)	.	16a#'\LL	>
.	.	.	(16cc#\	]
8r	8r	.	16ee\	.
.	.	.	16ff#\JJ	.
*	*	*	*8va	*
8r	8r	.	16eeee\LL)	.
.	.	.	(16cccc#\	.
8F#/ 8FF#/	8e/ 8A#/	.	16aaa#\	.
.	.	.	16fff#\JJ	.
*	*	*	*X8va	*
=138	=138	=138	=138	=138
8F#/ 8FF#/	8e/ 8A#/	.	16eee\LL	.
.	.	.	16ccc#\	.
8r	8r	.	16aa#\	.
.	.	.	16ff#\JJ	.
8r	8r	.	16gg#\LL	<
.	.	.	16a#\)	.
8F#/ 8FF#/	8c#/ 8A#/	.	16ff#\	.
.	.	.	16ee\JJ	[
=139	=139	=139	=139	=139
!!LO:TX:a:B:t=T
!	!	!	!LO:TX:a:B:t=T:mod=	!
4F##X/ 4FF##X/	4d#/ 4c#/ 4B/	.	4dd#\	> ]
4F##\	(>4d#/ 4c#/ 4A#/	.	16ff##X'\LL	<
.	.	.	(16eee\	.
.	.	.	(16qqddd#/LL	.
.	.	.	16qqeee/JJ)	.
.	.	.	16ddd#\)	.
.	.	.	(16ff##\JJ	[[
!!LO:LB:g=original
=140	=140	=140	=140	=140
*xywh-#27:100,1366,2363,499	*xywh-#27:100,1366,2363,499	*	*xywh-#27:133,1118,2363,276	*
4G#\	(>4e/ 4c#/ 4A#/)	.	16gg#\LL)	>
.	.	.	(16fff#\	.
.	.	.	(16qqeee/LL	.
.	.	.	16qqfff#/JJ	.
.	.	.	16eee\))	.
.	.	.	(16gg#\JJ	.
4F##X\	4d#/ 4c#/ 4A#/	.	16ff##X\LL)	] <
.	.	.	(16eee\	.
.	.	.	(16qqddd#/LL	.
.	.	.	16qqeee/JJ	.
.	.	.	16ddd#\))	.
.	.	.	(16ff##\JJ	[[
=141	=141	=141	=141	=141
4E\	(>4g#/ 4c#/ 4A#/)	.	16gg#\LL)	>
.	.	.	(16fff#\	.
.	.	.	(16qqeee/LL	.
.	.	.	16qqfff#/JJ	.
.	.	.	16eee\))	.
.	.	.	(16gg#\JJ	.
4D#\	4f##X/ 4c#/ 4A#/	<	16ff##X\LL)	] <
.	.	.	(16eee\	.
.	.	.	(16qqddd#/LL	.
.	.	.	16qqeee/JJ	.
.	.	.	16ddd#\))	.
.	.	.	(16ff##\JJ	.
=142	=142	=142	=142	=142
4GG#/	4f#X/ 4B#X/	[	16ff#X\LL)	[
.	.	.	(16eee\	.
.	.	.	(16qqddd#/LL	.
.	.	.	16qqeee/JJ	.
.	.	.	16ddd#\))	.
.	.	.	(16ff#\JJ	.
4C#/	4e#X/ 4Bn/	.	16ee#X\LL)	.
.	.	.	16gg#\	.
.	.	.	16ccc#\	.
.	.	.	16ggg#\JJ	.
=143	=143	=143	=143	=143
4FF#/	4en/ 4A#/	>	16een\LL	>
.	.	.	(16ddd#\	.
.	.	.	(16qqccc#/LL	.
.	.	.	16qqddd#/JJ	.
.	.	.	16ccc#\))	.
.	.	.	(16ee\JJ	.
4BB/	4d#/ 4B/)	]	16dd#\LL)	.
.	.	.	16ff#\	.
.	.	.	16bb\	.
.	.	.	16fff#\JJ	]]
=144	=144	=144	=144	=144
[2GG#/	[2e#X/ [2dn/ [2B/	.	16dddn\LL	.
.	.	.	(16gg#\	.
.	.	.	16bb\	.
.	.	.	16ddd\JJ	.
.	.	.	16eee#X\LL)	.
.	.	.	(16bb\	.
.	.	.	16ddd\	.
.	.	.	16eee#\JJ	.
=145	=145	=145	=145	=145
2GG#/_	2e#/_ 2d/_ 2B/_	.	16ggg#\LL)	.
.	.	.	(16dddn\	.
.	.	.	16eee#X\	.
.	.	.	16ggg#\JJ	.
*	*	*	*8va	*
.	.	.	16bbb\LL	.
.	.	.	16eee#X\	.
.	.	.	16ggg#\	.
.	.	.	16bbb\JJ	.
!!LO:LB:g=original
=146	=146	=146	=146	=146
*xywh-#27:136,2167,2327,456	*xywh-#27:136,2167,2327,456	*	*xywh-#27:143,1883,2406,273	*
2GG#/_	2e#X/_ 2dnX/_ 2B/_	.	16ddddn\LL	.
.	.	.	16ggg#\	.
.	.	.	16bbb\	.
.	.	.	16dddd\JJ	.
.	.	.	16eeee#X\LL	.
.	.	.	16bbb\	.
.	.	.	16dddd\	.
.	.	.	16eeee#\JJ	.
=147	=147	=147	=147	=147
4GG#/]	2e#/] 2d/] 2B/]	.	8gggg#\)	.
.	.	.	(4bbbb;\	.
4G#\	.	.	.	.
*	*	*	*X8va	*
.	.	.	8bb\)	.
=148	=148	=148	=148	=148
8f#\ 8dn\ 8An\	(4.ff#\	.	16aan\LL	.
.	.	.	(16f#\	<
8r	.	.	16an\	.
.	.	.	16ddn\JJ	.
8r	.	.	16ff#\LL	.
.	.	.	16ggn\	.
.	(8qaan/	.	.	.
8f#\ 8d\ 8A\	8ggn\)	.	16aa\	.
.	.	.	(16qqbb/LL	.
.	.	.	16qqccc#/JJ	.
.	.	.	16bb\JJ)	[
=149	=149	=149	=149	=149
8f#\ 8dn\ 8An\	4.ff#\)	.	16aan\LL)	>
.	.	.	(16aaan\	] <
8r	.	.	16eee#X\	.
.	.	.	16fff#\JJ	.
8r	.	.	16ccc#\LL	.
.	.	.	16dddn\	.
8f#\ 8d\ 8A\	(8g#X/	.	16ff#\	.
.	.	.	16bb\JJ	[[
=150	=150	=150	=150	=150
8f#\ 8dn\ 8An\	(8an\L)	.	16aan/LL)	>
.	.	.	(16dn/	] <
8r	8ddn\	.	16f#/	.
.	.	.	16an/JJ	.
4r	8ff#\	.	16ddn\LL	.
.	.	.	16ee\	.
.	8bbn\J	.	16ff#\	.
.	.	.	(16qqggn/LL	.
.	.	.	16qqaan/JJ	.
.	.	.	16ggn\JJ)	[[
=151	=151	=151	=151	=151
*^	*	*	*	*
*	*xywh-#27:136,2167,2327,456	*	*	*	*
!LO:TX:a:i:t=m.s.	!	!	!	!	!
(<8f#>\L	2r	4.aan\)	.	16ff#\LL)	>
.	.	.	.	(16fff#\	] <
8an>\	.	.	.	16ccc#\	.
.	.	.	.	16dddn\JJ	.
8ddn>\J)	.	.	.	16gg#X\LL	.
.	.	.	.	16aan\	.
8r	.	(8ff#\	.	16ff#\	.
.	.	.	.	16ddn\JJ	[[
*v	*v	*	*	*	*
!!LO:LB:g=original
=152	=152	=152	=152	=152
*xywh-#27:133,2900,2371,571	*xywh-#27:133,2900,2371,571	*	*xywh-#27:161,2634,2349,276	*
8gn\ 8e\ 8An\	8cc#\L	.	16cc#\LL)	>
.	.	.	(16ee\	] <
8r	8ee\	.	16ggn\	.
.	.	.	16aan\JJ	.
8r	8ggn\	.	16bb-X\LL	.
.	.	.	16gg\	.
8g\ 8e\ 8A\	8bb-X\J	.	16ee\	.
.	.	.	16ddn\JJ	[[
=153	=153	=153	=153	=153
*	*^	*	*	*
*	*	*xywh-#27:133,2900,2371,571	*	*	*
8gn\ 8e\ 8An\	(4.aan\)	8ccc#/L	.	16cc#\LL)	>
.	.	.	.	(16ee\	] <
8r	.	8eee/	.	16ggn\	.
.	.	.	.	16aan\JJ	.
8r	.	8gggn/	.	16bbn\LL	.
.	.	.	.	16gg\	.
8g\ 8e\ 8A\	8ra	8bbbn/J	.	16ee\	.
.	.	.	.	16ddn\JJ	[[
*	*v	*v	*	*	*
=154	=154	=154	=154	=154
8gn\ 8e\ 8An\	8aaan\)	.	16cc#\LL)	>
.	.	.	(16ee\	] <
8r	8r	.	16ggn\	.
.	.	.	16aan\JJ	.
4r	4r	.	16gggn\LL)	.
.	.	.	(16an\	.
.	.	.	16eee\)	.
.	.	.	(16a\JJ	.
*	*clefF4	*	*	*
=155	=155	=155	=155	=155
8AAn/ 8AAAn/	8c#\L 8An'\	<	16ccc#\LL)	.
.	.	.	(16an\	.
8r	8dn\ 8B'\	.	16bb\)	.
.	.	.	(16a\JJ	.
8r	8d#X\ 8B#X'\	.	16aan\LL)	.
.	.	.	(16a\	.
8AA/ 8AAA/	8e\J 8c#'\	[[	16ggn\)	.
.	.	.	(16a\JJ	[[
=156	=156	=156	=156	=156
4AA#X/ 4AAA#X/	4f#\ 4e\ 4c#\ 4F#\	>	8ff#\L)	>
.	.	]	(16.ff#\L	] <
.	.	.	32ggn\JJk)	.
4r	4r	.	(16ff#\LL	.
.	.	.	16aa#\)	.
.	.	.	(16ff#\	.
.	.	.	16ccc#\JJ)	.
*	*clefG2	*	*	*
=157	=157	=157	=157	=157
8r	8r	.	(16ff#\LL	.
.	.	.	16fff#\)	.
8f#\L	8ff#\L 8a#'\	<	(16ff#\	.
.	.	.	16aaa#\JJ)	.
8f#\	8ee#X\ 8b'\	.	(16gg#X\LL	.
.	.	.	16bbb\)	.
8f#\J	8een\J 8cc#'\	[[	(16aa#\	.
.	.	.	16cccc#\JJ)	[[
=158	=158	=158	=158	=158
8f#\ 8B\	8dd#\ 8b'\	>	(16bb\LL	>
.	.	.	16ddddn\)	.
!	!	!	!LO:TX:a:B:t=U	!
8r	8r	]	(16.cc#\	] <
.	.	.	32ddn\JJk)	.
4r	4r	.	(16cc#\LL	.
.	.	.	16ee#X\)	.
.	.	.	(16cc#\	.
.	.	.	16gg#\JJ)	.
!!LO:PB:g=original
=159	=159	=159	=159	=159
*xywh-#28:331,592,2419,503	*xywh-#28:331,592,2419,503	*	*xywh-#28:362,323,2382,256	*
8r	8r	.	(16cc#\LL	.
.	.	.	16ccc#\)	.
8c#\L	8cc#/L 8e#X'>/	<	(16cc#\	.
.	.	.	16eee#X\JJ)	.
8c#\	8b#X/ 8f#'>/	.	(16dd#X\LL	.
.	.	.	16fff#\)	.
8c#\J	8bn/J 8g#'>/	[[	(16ee#X\	.
.	.	.	16ggg#\JJ)	[[
=160	=160	=160	=160	=160
.	.	.	(8qff#/	>
8F#\	8an/ 8f#'>/	>	8aaan\L)	.
4Dn\	4a/ 4f#/ 4An/	]	(16aaa\L	] <
.	.	.	16fff#\JJ)	.
.	.	.	16dddn\LL	.
.	.	.	16aan\	.
8D\	8a/ 8f#/ 8A/	.	16ff#\	.
.	.	.	16ddn\JJ	[[
=161	=161	=161	=161	=161
8Dn\	8an/ 8f#/ 8An/	.	(16eeM\LL	>
.	.	.	16ddn\)	.
4D\	4a/ 4f#/ 4A/	.	(16ff#\	] <
.	.	.	16aan\JJ)	.
.	.	.	16dddn\LL	.
.	.	.	16fff#\	.
8D\	8a/ 8f#/ 8A/	.	16aaan\	.
.	.	.	16fff#\JJ	[[
=162	=162	=162	=162	=162
*	*	*	*8va	*
8AAn/	8an/ 8gn/ 8c#/ 8An/	.	8gggn\L	>
4AA/	4a/ 4g/ 4c#/ 4A/	.	16ggg\L	] <
.	.	.	16aan\JJ	.
.	.	.	16eeee\LL	.
.	.	.	16aa\	.
8AA/	8a/ 8g/ 8c#/ 8A/	.	16ddddn\	.
.	.	.	16aa\JJ	.
=163	=163	=163	=163	=163
*^	*^	*	*	*
*	*xywh-#28:331,592,2419,503	*xywh-#28:331,592,2419,503	*	*	*	*
2An/	8AAn\L	8an/ 8gn/	8c#\L	.	16cccc#\LL	.
.	.	.	.	.	16aan\	.
.	8BB\	8r	8dn'\	<	16bbb\	.
.	.	.	.	.	16aa\JJ	.
.	8BB#X\	4r	8d#X'\	.	16aaan\LL	.
.	.	.	.	.	16aa\	.
.	8C#\J	.	8en'\J	[	16gggn\	.
.	.	.	.	.	16aa\JJ	[[
*v	*v	*	*	*	*	*
*	*v	*v	*	*	*
*	*	*	*X8va	*
=164	=164	=164	=164	=164
8Dn\	8f#/ 8An'/	>	8fff#\L	>
4BB/	4f#/ 4dn/	]	(16fff#\L	] <
.	.	.	16dddn\JJ)	.
.	.	.	16bb\LL	.
.	.	.	16ff#\	.
8BB/	8f#/ 8d/	.	16ddn\	.
.	.	.	16b\JJ	[[
=165	=165	=165	=165	=165
8BB/	8f#/ 8dn/ 8A#/	.	(16cc#M\LL	>
.	.	.	16b\)	.
4BB/	4f#/ 4d/ 4A#/	.	(16ddn\	] <
.	.	.	16ff#\JJ)	.
.	.	.	16bb\LL	.
.	.	.	16dddn\	.
8BB/	8f#/ 8d/ 8A#/	.	16fff#\	.
.	.	.	16ddd\JJ	[[
!!LO:LB:g=original
=166	=166	=166	=166	=166
*xywh-#28:346,1426,2385,506	*xywh-#28:346,1426,2385,506	*	*xywh-#28:365,1110,2382,304	*
8FF#/	8f#/ 8e/ 8A#/	.	8eee\L	>
4FF#/	4f#/ 4e/ 4A#/	.	(16eee\L	] <
.	.	.	16ff#\JJ)	.
.	.	.	16cccc#\LL	.
.	.	.	16ff#\	.
[8FF#/	[8f#/ [8e/ [8A#/	.	16bbb\	.
.	.	.	16ff#\JJ	.
=167	=167	=167	=167	=167
8FF#/L]	8f#/]L 8e/] 8A#/]	.	16aaa#\LL	.
.	.	.	16ff#\	.
8FF#/	8f#/ 8e/ 8A#/	<	16gggn\	.
.	.	.	16ff#\JJ	.
8GG#/	8f#/ 8e/ 8B/	.	16fff#\LL	.
.	.	.	16ff#\	.
8AA#/J	8f#/J 8e/ 8c#/	[[	16eee\	.
.	.	.	16ff#\JJ	[
=168	=168	=168	=168	=168
!	!	!	!LO:TX:a:i:t=P:problem:mixed beam	!
8BB/	8f#/ 8dn/ 8B/ 8F#/	>	16dddn\LL	>
.	.	.	(16B/	] mf <
8r	8r	]	16A#X/	.
.	.	.	16B/JJ)	.
4r	4r	.	16dn/LL	.
.	.	.	16f#/	.
.	.	.	16b/	.
.	.	.	16ddn/JJ	.
=169	=169	=169	=169	=169
2r	2r	.	16ff#\LL	.
.	.	.	16bb\	.
.	.	.	16dddn\	.
.	.	.	16fff#\JJ	.
.	.	.	(8.bbb\L	.
.	.	.	16dn\Jk)	[[
=170	=170	=170	=170	=170
8C#/ 8CC#/	8an/ 8f#/ 8c#/ 8An`>/	>	((8c#/L	f >
.	.	.	16qqB#X/LL	.
.	.	]	16qqc#/	.
.	.	.	16qqd#/	.
.	.	.	16qqc#/JJ)	.
8r	8r	.	16B#X/L	.
.	.	.	16c#/JJ	.
4r	4r	.	16f#\LL	.
.	.	.	16an\)	] p
.	.	.	16cc#\	.
.	.	.	16ff#\JJ	.
=171	=171	=171	=171	=171
2r	2r	.	16aan\LL	.
.	.	.	16ccc#\	.
.	.	.	16fff#\	.
.	.	.	16aaan\JJ	.
.	.	.	(8.cccc#\L	.
.	.	.	16ccc#\Jk)	.
=172	=172	=172	=172	=172
8BB#X/ 8BBB#X/	8an/ 8f#/ 8d#/ 8An/	.	16bb#X\LL	.
.	.	.	(16b#X\	<
8r	8r	.	16aan\	.
.	.	.	16bb#\JJ	.
8ryy	8BB#X</L	.	16ddd#X\LL)	.
.	.	.	(16dd#\	.
8ryy	8f#\J 8d#\ 8A\	.	16bb#\	.
.	.	.	16ddd#\JJ	.
!!LO:LB:g=original
=173	=173	=173	=173	=173
*xywh-#28:362,2191,2443,503	*xywh-#28:362,2191,2443,503	*	*xywh-#28:365,1917,2434,304	*
2ryy	8D#</L	.	16fff#\LL)	.
.	.	<	(16ff#\	.
.	8an\ 8f#\ 8B#X\	.	16ddd#\	.
.	.	.	16fff#\JJ	.
*	*	*	*8va	*
.	8F#</	.	16aaan\LL)	.
.	.	.	(16aan\	.
.	8b#X\J 8a\ 8d#\	.	16fff#\	.
.	.	.	16aaa\JJ	.
=174	=174	=174	=174	=174
2ryy	8An</L	.	16ccccn\LL)	.
.	.	.	(16cccn\	.
.	8dd#\ 8b#X\ 8f#\	.	16aaan\	.
.	.	.	16cccc\JJ	.
.	8B#X</	.	16dddd#\LL)	.
.	.	.	(16ddd#\	.
.	8ff#\J 8dd#\ 8an\	.	16bbb#X\	.
.	.	.	16dddd#\JJ)	.
=175	=175	=175	=175	=175
2ryy	8d#</L	.	(4.ffff#\	.
.	8aan\ 8ff#\ 8b#X\	.	.	.
.	8F#</	.	.	.
*	*	*	*X8va	*
!	!	!	!LO:TX:a:B:t=V:mod=	!
.	8an\J 8f#\ 8d#\ 8An\	.	8B#X/)	.
=176	=176	=176	=176	=176
!!LO:TX:a:B:t=V
2ryy	8C#</L	mf	16c#/LL	f >
.	.	.	(16c#/	.
.	8g#\ 8e#X\ 8c#\ 8G#\	.	16e#X/)	.
.	.	.	16g#/JJ	.
.	8E#X</	p <	16cc#/LL	.
.	.	.	(16c#/	] p <
.	8g#\J 8c#\ 8Bn\	.	16cc#/)	.
.	.	.	16bn/JJ	.
=177	=177	=177	=177	=177
2ryy	8F#</L	.	16an\LL	.
.	.	.	(16cc#\	.
.	8an\ 8f#\ 8c#\ 8An\	.	16ccc#\)	.
.	.	.	16aan\JJ	.
.	8FF#</	.	(16ff#\LL	.
.	.	.	16cc#\)	.
.	8f#\J 8c#\ 8A\	[[	16a\	.
.	.	.	16f#\JJ	[
=178	=178	=178	=178	=178
2ryy	8C#</L	>	16c#\LL	>
.	.	.	(16cc#\	] <
.	8e#X\ 8c#\ 8G#\	]	16ee#X\)	.
.	.	<	16gg#\JJ	.
.	8E#X</	.	16ccc#\LL	.
.	.	.	(16cc#\	.
.	8g#\J 8c#\ 8B\	.	16ccc#\)	.
.	.	.	16bb\JJ	[
=179	=179	=179	=179	=179
2ryy	8F#</L	.	16aan\LL	>
.	.	.	16f#\	] <
.	8an\ 8f#\ 8c#\ 8An\	.	16an\	.
.	.	.	16cc#\JJ	.
.	8AAn</	.	16dd#\LL	.
.	.	.	16aa\	.
.	8f#\J 8c#\	[[	16ccc#\	.
.	.	.	16fff#\JJ	[
!!LO:LB:g=original
=180	=180	=180	=180	=180
*xywh-#28:365,2978,2401,530	*xywh-#28:365,2978,2401,530	*	*xywh-#28:401,2788,2358,228	*
8C#/ 8CC#/	8cc#/ 8g#/ 8e#X/	>	16eee#X\LL	>
.	.	]	(16ee#X\	] mf
8r	8r	.	16gg#\)	.
.	.	.	16ccc#\JJ	.
8C#/ 8CC#/	8dd#/ 8an/ 8f#/	mf	16bb#X\LL	.
.	.	.	(16aan\	.
8r	8r	.	16ff#\)	.
.	.	.	16ddd#\JJ	.
=181	=181	=181	=181	=181
8C#/ 8CC#/	8ee#X/ 8g#/ 8e#X/	<	16ccc#\LL	<
.	.	.	(16ee#X\	.
8r	8r	.	16gg#\)	.
.	.	.	16ccc#\JJ	.
8C#/ 8CC#/	8dd#/ 8b#X/ 8an/ 8f#/	.	16bb#X\LL	.
.	.	.	(16aan\	.
8r	8r	.	16ff#\)	.
.	.	.	16ddd#\JJ	.
=182	=182	=182	=182	=182
8C#/ 8CC#/	8ee#X/ 8cc#/ 8g#/ 8e#X/	.	16ccc#\LL	.
.	.	.	(16ee#X\	.
8r	8r	.	16gg#\)	.
.	.	.	16ccc#\JJ	.
8C#/ 8CC#/	8dd#/ 8b#X/ 8an/ 8f#/	.	16bb#X\LL	.
.	.	.	(16aan\	.
8r	8r	.	16ff#\)	.
.	.	.	16ddd#\JJ	.
=183	=183	=183	=183	=183
8C#/ 8CC#/	8ee#X/ 8cc#/ 8g#/ 8e#X/	.	16ccc#\LL	.
.	.	.	(16ee#X\	.
8r	8r	.	16gg#\)	.
.	.	.	16ccc#\JJ	.
8C#/ 8CC#/	8dd#/ 8b#X/ 8an/ 8f#/	.	(16bb#X\LL	.
.	.	.	16aan\	.
8r	8r	.	16ff#\)	.
.	.	.	16ddd#\JJ	.
=184	=184	=184	=184	=184
8C#/ 8CC#/	8ee#X/ 8cc#/ 8g#/ 8e#X/	f	4ccc#\	.
8r	8r	.	.	.
4r	4r	.	8c#\L	f
.	.	.	8ccc#\J 8ee#X\ 8g#\ 8c#\	.
=185	=185	=185	=185	=185
2r	2r	.	8c#\L	.
.	.	.	8eee#X\J 8ee#X\ 8g#\ 8c#\	.
.	.	.	8c#\L	.
.	.	.	8ggg#\J 8ee#X\ 8g#\ 8c#\	.
!!LO:PB:g=original
=186	=186	=186	=186	=186
*xywh-#29:129,588,2378,482	*xywh-#29:129,588,2378,482	*	*xywh-#29:165,350,2328,287	*
2r	2r	.	4c#/	.
.	.	.	8r	.
.	.	.	(16qqcc#/LL	p <
.	.	.	16qqddn/JJ	.
.	.	.	16.cc#\LL)	.
.	.	.	32b#X\JJk	[
=187	=187	=187	=187	=187
!	!	!	!LO:TX:a:i:t=rit.	!
2r	(>2b/ 2g#/	p	4cc#\	>
.	.	.	8r	]
.	.	.	(16qqcc#/LL	<
.	.	.	16qqddn/JJ	.
.	.	.	16.cc#\LL)	.
.	.	.	32b#X\JJk	[
=188	=188	=188	=188	=188
2r	2an/ 2f#/	.	4cc#\	>
.	.	.	8r	]
.	.	.	(16qqcc#/LL	<
.	.	.	16qqdd/JJ	.
.	.	.	16.cc#\LL)	.
.	.	.	32b#X\JJk	[
=189	=189	=189	=189	=189
4r	[<4.g#/ [4.c#/)	.	4cc#\	>
8r	.	.	8r	]
=||	=||	=||	=||	=||
!!!OMD: Allegro giojoso.
!!!key: A
*k[f#c#g#]	*k[f#c#g#]	*	*k[f#c#g#]	*
!!LO:TX:a:B:t=W
!	!	!	!LO:TX:a:B:t=W:mod=	!
!	!	!	!LO:TX:b:i:t=molto grazioso	!
.	.	.	(16qqcc#/LL	.
.	.	.	16qqddnX/JJ	.
8r	8g#/] 8c#/]	.	16.cc#\LL)	.
.	.	.	32b#X\JJk	.
=190	=190	=190	=190	=190
2ryy	8E#X</L	.	16.cc#\LL	.
!	!LO:TX:b:i:t=leggiero	!	!	!
.	.	.	32dd#X\K	.
.	8g#\ 8c#\ 8B\	.	16.ee#X\	.
.	.	.	32ff#\JJk	.
.	.	.	(16qqgg#/LL	.
.	.	.	16qqaa/JJ	.
.	8C#</	.	16.gg#\LL)	.
.	.	.	32ff##X\K	.
.	8e#X\J 8c#\ 8B\	.	16.gg#\	.
.	.	.	32aa\JJk	.
=191	=191	=191	=191	=191
2ryy	8F#</L	.	16.ff#X\LL	.
.	.	.	32gg#\K	.
.	8f#\ 8c#\ 8A\	.	16.aa\	.
.	.	.	32bb\JJk	.
.	8FF#</	.	8ccc#\L	.
.	8f#\J 8c#\ 8A\	.	(16.ccc#\L	<
.	.	.	32fff#\JJk	[[
*	*clefF4	*	*	*
!!LO:LB:g=original
=192	=192	=192	=192	=192
*xywh-#29:90,1372,2457,511	*xywh-#29:90,1372,2457,511	*	*xywh-#29:140,1181,2324,179	*
2ryy	8BB</L	.	8ddd\L)	>
.	8f#\ 8d\ 8F#\	.	(16.ddd\L	] <
.	.	.	32fff#\JJk	[
.	8AA</	.	8ccc#\L)	>
.	8f#\J 8c#\ 8F#\	.	(16.ccc#\L	] <
.	.	.	32fff#\JJk	[
=193	=193	=193	=193	=193
8ryy	8BB</L	.	8ddd\L)	>
8ryy	8f#\J 8d\ 8F#\	.	(16.ddd\L	] <
.	.	.	32fff#\JJk	[
8AA/L	8r	.	8ccc#\L)	>
*	*clefG2	*	*	*
8AA#X/J	(>8cc#/ 8f#/ 8c#/	<	(16.fff#\L	] <
.	.	.	32eee\JJk	.
=194	=194	=194	=194	=194
*	*^	*	*	*
*	*	*xywh-#29:90,1372,2457,511	*	*	*
!	!LO:MO:mod=8rf	!	!	!	!
8BB/L	8rc	4dd\ 4d\	.	16.ddd\LL)	.
.	.	.	.	(32bb\K	.
8E/J	4g#^/	.	.	16.gg#\)	.
.	.	.	.	(32eee\JJk	.
8AA/L	.	4cc#\ 4c#\	.	16.ccc#\LL)	.
.	.	.	.	(32aa\K	.
8D/J	[8f#^/	.	.	16.ff#\)	.
.	.	.	.	(32ddd\JJk	.
=195	=195	=195	=195	=195	=195
8GG#/L	8f#/L]	4b\ 4B\	.	16.bb\LL)	.
.	.	.	.	(32gg#\K	.
8C#/J	8e#X/J	.	[	16.ee#X\)	.
.	.	.	.	(32ccc#\JJk	[
8ryy	8FF#</L	4ryy	>	16.aa\LL)	>
.	.	.	.	(32ff#\K	.
8ryy	8a\J 8f#\ 8c#\ 8A\)	.	.	16.cc#\)	]
.	.	.	]	(32aa\JJk	<
*	*v	*v	*	*	*
=196	=196	=196	=196	=196
2ryy	8GG#</L	<	16gg#\LL)	.
.	.	.	(16b#X\	.
.	8g#\ 8f#\ 8B#X\	.	16dd#X\	.
.	.	.	16gg#\JJ	.
.	8G#</	.	16eee#X^\LL	.
.	.	.	16gg#\	.
.	8g#\J 8f#\ 8B#\	.	16ff#\	.
.	.	.	16ddd#X\JJ	.
=197	=197	=197	=197	=197
2ryy	8C#</L	.	16ccc#\LL)	.
.	.	.	(16ee#X\	.
.	8g#\ 8e#X\ 8c#\ 8G#\	.	16gg#\	.
.	.	.	16ccc#\JJ	.
.	8GG#</	.	16eee#X^\LL	.
.	.	.	16gg#\	.
.	8g#\J 8f#\ 8B#X\ 8G#\	.	16ff#\	.
.	.	.	16ddd#X\JJ	.
!!LO:LB:g=original
=198	=198	=198	=198	=198
*xywh-#29:93,2185,2407,496	*xywh-#29:93,2185,2407,496	*	*xywh-#29:140,1894,2382,323	*
2ryy	8C#</L	.	16ccc#\LL)	.
.	.	.	(16ee#X\	.
.	8g#\ 8e#X\ 8c#\ 8G#\	.	16gg#\	.
.	.	.	16ccc#\JJ	.
.	8GG#</	.	16eee#X^\LL	.
.	.	.	16gg#\	.
.	8g#\J 8f#\ 8B#X\ 8G#\	.	16ff#\	.
.	.	.	16ddd#X\JJ)	.
=199	=199	=199	=199	=199
.	.	.	(8qbb#X/	f >
[2G#\ [2C#\	8cc#/ 8e#X/ 8c#/	f	[2ccc#T\)	.
.	8r	.	.	.
.	(>4g#/ [4e#/	p	.	.
=200	=200	=200	=200	=200
2G#\] 2C#\]	4cc#/ 4e#/])	.	16ccc#\LL]	]
.	.	.	(16ee#X\	p <
.	.	.	16gg#\	.
.	.	.	16ccc#\JJ	.
.	(>4dd/ [4f#/	.	16bb\LL	.
.	.	.	16ddn\	.
.	.	.	16ff#\	.
.	.	.	16bb\JJ)	[
=201	=201	=201	=201	=201
.	.	.	(8qgg#/	>
*^	*	*	*	*
*	*xywh-#29:93,2185,2407,496	*	*	*	*
4A/	[2C#\	4cc#/ 4f#/]	.	[2aaT\)	.
4c#/	.	4a/ [4f#/	.	.	.
=202	=202	=202	=202	=202	=202
*	*	*^	*	*	*
*	*	*	*xywh-#29:93,2185,2407,496	*	*	*
4A/	2C#\_	2cc#/	4f#\]	.	16aa\LL]	]
.	.	.	.	.	(16cc#\	<
.	.	.	.	.	16ff#\	.
.	.	.	.	.	16aa\JJ)	.
[4B/	.	.	[4e#X\	.	16gg#\LL	.
.	.	.	.	.	(16b\	.
.	.	.	.	.	16cc#\	.
.	.	.	.	.	16ccc#\JJ)	[
*	*	*v	*v	*	*	*
=203	=203	=203	=203	=203	=203
4B/]	4C#\]	4cc#/ 4e#/])	.	(4.ccc#\	>
4r	4ryy	4r	.	.	.
.	.	.	.	(16qqcc#/LL	]
!	!	!	!	!LO:TX:a:B:t=X:mod=	!
!	!	!	!	!LO:TX:b:i:t=delicatamente	!
.	.	.	.	16qqdd/JJ	.
!!LO:TX:a:B:t=X
.	.	.	.	16.b\LL)	.
.	.	.	.	32b#X\JJk)	.
*v	*v	*	*	*	*
=204	=204	=204	=204	=204
2ryy	8E#X</L	.	16.cc#\LL	.
.	.	.	32dd#X\K	.
.	8g#\ 8c#\ 8B\	.	16.ee#X\	.
.	.	.	32ff#\JJk	.
.	.	.	(16qqgg#/LL	.
.	.	.	16qqaa/JJ	.
.	8C#</	.	16.gg#\LL)	.
.	.	.	32ff##X\K	.
.	8e#X\J 8c#\ 8B\	.	16.gg#\	.
.	.	.	32aa\JJk	.
!!LO:LB:g=original
=205	=205	=205	=205	=205
*	*	*	*	*^
*xywh-#29:129,2937,2360,579	*xywh-#29:129,2937,2360,579	*	*xywh-#29:162,2700,2310,262	*	*
2ryy	8F#</L	.	16.ff#X\LL	.	.
.	.	.	32gg#\K	.	.
.	8f#\ 8c#\ 8A\	<	16.aa\	.	.
.	.	.	32bb\JJk	.	.
.	8FF#</	.	8ccc#\L	.	.
.	8f#\J 8c#\ 8A\	[	(16.ccc#\L	<	<
.	.	.	32fff#\JJk	[[	.
*	*clefF4	*	*	*	*
*	*	*	*	*v	*v
=206	=206	=206	=206	=206
2ryy	8BB</L	.	8ddd\L)	>
.	8f#\ 8d\ 8F#\	.	(16.ddd\L	] <
.	.	.	32fff#\JJk	[
.	8AA</	.	8ccc#\L)	>
.	8f#\J 8c#\ 8F#\	.	(16.ccc#\L	] <
.	.	.	32fff#\JJk	[
=207	=207	=207	=207	=207
2ryy	8BB</L	.	8ddd\L)	>
.	8f#\ 8d\ 8F#\	.	(16.ddd\L	] <
.	.	.	32fff#\JJk	[
.	8AA</	.	16ccc#\KL)	>
.	.	.	8aaa;\	] sf
.	8f#\J 8c#\ 8F#;\	sf	.	.
.	.	.	(16fff#\Jk	p
*	*clefG2	*	*	*
=208	=208	=208	=208	=208
2ryy	8E</L	p	16.eee\LL)	<
.	.	.	(32ddd\K	.
.	8g#\ 8e\ 8d\	.	16.bb\)	.
.	.	.	(32fff#\JJk	.
.	8AA</	.	16.eee\LL)	.
.	.	.	(32ccc#\K	.
.	8a\J 8e\ 8c#\	.	16.aa\)	.
.	.	.	(32fff#\JJk	.
=209	=209	=209	=209	=209
8ryy	8E</L	.	16.eee\LL)	.
.	.	.	(32ddd\K	.
8ryy	8g#\J 8e\ 8d\	.	16.bb\)	.
.	.	.	((32fff#\JJk	[
8AA/L	8r	.	16.eee\LL)	>
.	.	.	(32ccc#\K	.
8D/J	8a/ 8f#/ 8A/	.	16.aa\))	]
.	.	.	(32bb\JJk	<
=210	=210	=210	=210	=210
*^	*^	*	*	*
*	*xywh-#29:129,2937,2360,579	*xywh-#29:129,2937,2360,579	*	*	*	*
!LO:TX:a:i:t=poco rit.	!	!	!	!	!LO:TX:b:i:t=poco rit.	!
8r	2C#\	8r	8ryy	.	16ccc#\LL	.
.	.	.	.	.	16fff#\)	.
8A/	.	(8cc#/	4f#\	.	16aaa\	.
.	.	.	.	.	16bbb`\JJ	.
4G#/	.	4b/	.	.	8.cccc#\L	.
.	.	.	8e#X\	.	.	[
.	.	.	.	.	16ee#X\Jk	.
*v	*v	*	*	*	*	*
*	*v	*v	*	*	*
=211	=211	=211	=211	=211
4.A#X\ 4.F#\	4.a#X/ 4.f#/ 4.c#/)	.	4ff#\	>
*	*	*	*8va	*
.	.	.	8ffff#\	]
8r;	8r;	.	8r;	.
*	*	*	*X8va	*
*	*clefF4	*	*	*
!!LO:PB:g=original
=212||	=212||	=212||	=212||	=212||
!!!key: F#
*k[f#c#g#d#a#e#]	*k[f#c#g#d#a#e#]	*	*k[f#c#g#d#a#e#]	*
*xywh-#30:370,579,2422,566	*xywh-#30:370,579,2422,566	*	*xywh-#30:391,355,2389,270	*
!!LO:TX:a:B:t=Maggiore
!	!	!	!LO:TX:a:B:t=Maggiore.:mod=	!
[2FF#/	(8C#\L	mf <	(4.a#/	mf <
.	8F#\	.	.	.
.	8A#\	.	.	.
.	.	.	(8qcc#/	.
.	8d#\J	[	8b\))	[
=213	=213	=213	=213	=213
*^	*	*	*	*
*	*xywh-#30:370,579,2422,566	*	*	*	*
2FF#\]	4ryy	8c#\	>	(4.a#/	>
*	*	*clefG2	*	*	*
.	.	8f#/L 8A#/	.	.	.
.	8F#/L	(8a#/)	]	.	]
.	8AAn/J	8dd#/J	<	8B#X/)	<
=214	=214	=214	=214	=214	=214
[<<2FF#\\	8AA#X//L	8cc#\L	.	(8c#/L	.
.	8C#//	8a#\J	.	8f#/	.
.	8F#//	4f#/	[[	8a#/	.
.	8B>\\J	.	.	8dd#/J)	[
=215	=215	=215	=215	=215	=215
2FF#\\]	8A#>\\L	8f#/L)	>	(4.cc#\	>
.	8F#//	(8a#/ 8f#/	]	.	.
.	8G#//	8cc#/ 8e#X/	.	.	]
.	8A#>\\J	8f#/J 8en/	.	8cc##X\)	<
=216	=216	=216	=216	=216	=216
[<<2BB\\	8BB//L	4f#/ 4d#/ 4B/)	.	(4.dd#\	.
.	8D#//	.	.	.	.
.	8F#//	4r	.	.	.
.	.	.	.	(8qff#/	.
.	8A#//J	.	.	8een\))	[
=217	=217	=217	=217	=217	=217
2BB\\]	4B//	(>8d#/L	.	(4.dd#\	>
.	.	8f#/	.	.	.
!	!LO:SIC:s=4rG	!	!	!	!
.	4r	8b/J)	.	.	.
.	.	8r	.	(8c##X/)	] <
*v	*v	*	*	*	*
!!LO:LB:g=original
=218	=218	=218	=218	=218
*xywh-#30:301,1409,2404,483	*xywh-#30:301,1409,2404,483	*	*xywh-#30:388,1182,2353,238	*
!	!LO:TX:a:i:t=P:problem:mixed beam	!	!	!
[<2GG#\	(>8BB</L	.	(8d#/L	.
.	8D#</	.	8f##X/	.
.	8B\	.	8g#/	.
.	8G#\J	.	8ee#X/J))	[
=219	=219	=219	=219	=219
2GG#\]	8B/L	.	[4dd#\	>
.	8d#/	.	.	.
.	8f#/	.	8dd#\L]	.
.	[8b/J	.	(16b\L	] <
.	.	.	16a#\JJ	.
=220	=220	=220	=220	=220
*^	*	*	*	*
*	*xywh-#30:301,1409,2404,483	*	*	*	*
[<<2C#\\	8C#//L	8b/L]	.	8g#~/L	.
.	8E#//	8g#/J	.	8g#~/J)	.
.	8G#//	4e#/	.	(8g#/L	.
.	8B//J	.	.	16a#/L	.
.	.	.	.	16b/JJ)	[
=221	=221	=221	=221	=221	=221
2C#\\]	2A#^>//	8r)	.	([4dd#\	>
.	.	(>8f##X/L	.	.	.
.	.	8en/	.	16dd#\LL]	]
.	.	.	.	16cc#\	<
.	.	8c#/J	.	16b\	.
.	.	.	.	16a#\JJ)	.
=222	=222	=222	=222	=222	=222
[<<2C#\\	2B^>//	8r	.	8g#/L	.
.	.	8g#/L	.	8g#/J	.
.	.	8e#X/	.	(16g#/LL	.
.	.	.	.	16a#/	.
.	.	8c#/J	.	16b/	.
.	.	.	.	16b#X/JJ)	[
=223	=223	=223	=223	=223	=223
2C#\\]	4A#^>//	8r	.	([4dd#\	>
.	.	8f##X/L	.	.	.
.	4F##X^>//	8en/	.	16dd#\LL]	]
.	.	.	.	16cc#\)	<
.	.	8d#/J	.	16bn\	.
.	.	.	.	16a#\JJ	.
*v	*v	*	*	*	*
!!LO:LB:g=original
=224	=224	=224	=224	=224
*xywh-#30:362,2178,2404,541	*xywh-#30:362,2178,2404,541	*	*xywh-#30:399,1914,2332,277	*
2BB/	(8G#/L)	.	4g#/	.
.	8B/	<	.	[
.	8d#/	.	[4gg#\	<
.	8g#/J	.	.	.
=225	=225	=225	=225	=225
!	!	!	!LO:TX:b:i:t=appassionato	!
2BB#X/	8An/L	.	8gg#\L]	.
.	8d#/	.	(8ff#\	.
.	8f#/	.	8ee#\	.
.	8an/J	.	8dd#\J)	.
=226	=226	=226	=226	=226
2C#/	8A#X/L	.	(8dd#^>/L	.
.	8c#/	.	8cc#^>/)	.
.	8f#/	.	8a#^>/	.
.	8a#/J	.	8f#^>/J	.
=227	=227	=227	=227	=227
.	(>16qqB/LL	.	.	.
.	16qqc#/	.	.	.
.	16qqe#/JJ	.	.	.
4CC#/	4b\))	sf	(8e#^>/L	.
.	.	.	8cc#^>/)	.
4r	4r	.	8b#X^>/	.
.	.	.	8bn^>/J	.
=228	=228	=228	=228	=228
!!LO:TX:a:B:t=Y
!	!	!	!LO:TX:a:B:t=Y:mod=	!
!	!LO:TX:a:i:t=largamente	!	!LO:TX:a:i:t=largamente	!
[2FF#/	16r	p	(4.a#/	p <
.	(16c#/LL	<	.	.
.	16f#/	.	.	.
.	16g#/JJ	.	.	.
.	16a#\LL	.	.	.
.	16cc#\	.	.	.
.	.	.	(8qcc#/	.
.	16dd#\	.	8b\))	[
.	16ff#\JJ	[	.	.
=229	=229	=229	=229	=229
2FF#/_	16cc#/LL	>	(4.a#/	>
.	16A#/	.	.	.
.	16c#/	.	.	.
.	16e#/JJ	.	.	.
.	16f#/LL)	]	.	.
.	(>16c#/	<	.	[
.	16g#/ 16B/	.	8e#/)	<
.	16c#/JJ	.	.	.
!!LO:LB:g=original
=230	=230	=230	=230	=230
*^	*	*	*	*
*xywh-#30:359,2979,2346,512	*xywh-#30:359,2979,2346,512	*xywh-#30:359,2979,2346,512	*	*xywh-#30:312,2770,2418,212	*
4FF#/]	4ryy	16a#/LL 16A#/	.	(8f#/L	.
.	.	16c#/	.	.	.
.	.	16b/ 16g#/	.	8g#/	.
.	.	16c#/JJ	.	.	.
8r	4F#\	16cc#/LL 16f#/	.	8a#/	.
.	.	16f#/	.	.	.
8B/	.	16ff#/	.	8dd#/J)	[[
.	.	16f#/JJ	[	.	.
*v	*v	*	*	*	*
=231	=231	=231	=231	=231
2A#\ 2F#\	16cc#/LL)	>	(4.cc#\	>
.	(>16f#/	]	.	.
.	16a#/	.	.	.
.	16b/JJ	.	.	.
.	16een/LL 16cc#/	.	.	.
.	16a#/	.	.	.
.	16g#/	.	8cc##X\)	] <
.	16f#/JJ	.	.	.
=232	=232	=232	=232	=232
*^	*	*	*	*
*	*xywh-#30:359,2979,2346,512	*	*	*	*
4B/	[2F#\ [2BB\	16dd#/LL)	.	(4.dd#\	.
.	.	(16d#/	.	.	.
.	.	16f#/	.	.	.
.	.	16a#/JJ	.	.	.
4ra	.	16b\LL	.	.	.
.	.	16dd#\	.	.	.
.	.	.	.	(8qff#/	.
.	.	16cc#\	.	8een\))	[[
.	.	16a#\JJ	.	.	.
=233	=233	=233	=233	=233	=233
16F#/LL]	4BB\]	4b\)	.	(4.dd#\	>
N(>16D#/	.	.	.	.	.
16F#/	.	.	.	.	.
16B/JJ	.	.	.	.	.
4r	4ryy	16d#/LL	.	.	.
.	.	16f#/	.	.	.
.	.	16b/	.	8c##X/)	] <
.	.	16g#/JJ	.	.	.
*v	*v	*	*	*	*
*	*clefF4	*	*	*
!!LO:PB:g=original
=234	=234	=234	=234	=234
*xywh-#31:147,555,2372,530	*xywh-#31:147,555,2372,530	*	*xywh-#31:183,331,2362,234	*
4FF##X/	16d#\LL	.	(8d#/L	.
.	16F##X\	.	.	.
.	16A#\	.	8f##X/	.
.	16d#\JJ	.	.	.
4DD#\	16f##X\LL	.	8a#/	.
.	16A#\	.	.	.
.	16F##\	.	8dd#/J)	[
.	16D#</JJ	.	.	.
*	*clefG2	*	*	*
=235	=235	=235	=235	=235
2D#/ 2GG#/	(>16g#/LLN)	.	(4cc#\	>
.	16d#/	.	.	.
.	16g#/	.	.	.
.	16f##X/JJ	.	.	.
.	16g#/LL	.	4b\)	]
.	16d#/	.	.	.
.	16B/	.	.	.
.	16G#/JJ)	.	.	.
=236	=236	=236	=236	=236
*	*^	*	*	*
*	*	*xywh-#31:147,555,2372,530	*	*	*
4E#\	(>4ra	2c#\ 2B\	p	8r	.
.	.	.	.	8cc#\L	p <
4C#/	4e#/	.	.	8cc#\	.
.	.	.	.	8cc#\J	[
=237	=237	=237	=237	=237	=237
4A#\ 4F#\	4f#/	4c#\)	.	(8cc#\L	>
.	.	.	.	8aa#\	] <
4An\ 4F#\	(8d#/L	4B#X\	.	8ff#\	.
.	[8f#/J	.	.	8dd#\J)	[
*	*v	*v	*	*	*
=238	=238	=238	=238	=238
*^	*	*	*	*
*	*xywh-#31:147,555,2372,530	*	*	*	*
4.G#/	8r	8f#/L]	.	(4.cc#\	>
.	8C#\L	8e#/ 8c#^>/	.	.	.
.	8D#\	8f#/ 8c#'>/	.	.	.
8B/	8E#\J	8g#/J 8c#'>/	.	8g#/)	.
=239	=239	=239	=239	=239	=239
*	*	*^	*	*	*
*	*	*	*xywh-#31:147,555,2372,530	*	*	*
8A#\ 8F#\	4ryy	8c#/L)	8c#\	.	4a#/	]
8r	.	(8a#/	8r	.	.	.
8D#/L	4FF#\	8f#/	4An\	.	4b#X/	.
8F#/J	.	8d#/J	.	.	.	.
*v	*v	*	*	*	*	*
*	*v	*v	*	*	*
!!LO:LB:g=original
=240	=240	=240	=240	=240
*xywh-#31:161,1369,2347,551	*xywh-#31:161,1369,2347,551	*	*xywh-#31:179,1095,2344,302	*
4E#/ 4EE#/	4c#/ 4Bn/ 4G#/	.	8r	.
.	.	.	8cc#\L	<
4C#/ 4CC#/	4e#/ 4c#/ 4B/	.	8cc#\	.
.	.	.	8cc#\J	[[
=241	=241	=241	=241	=241
2F#/ 2FF#/	[2f#/ 2c#/ 2An/)	.	(8cc#\L	>
.	.	.	8aan\	] <
.	.	.	8ff#\	.
.	.	.	8ddn\J)	[
=242	=242	=242	=242	=242
*^	*	*	*	*
*	*xywh-#31:161,1369,2347,551	*	*	*	*
4.G#/	8r	8f#/L]	.	(4.cc#\	>
.	8C#\L	(>8e#/ 8c#'>^>/	.	.	.
.	8D#\	8f#/ 8c#'>/	.	.	.
8B/	8E#\J	8g#/J 8c#'>/	.	8g#/)	.
*v	*v	*	*	*	*
=243	=243	=243	=243	=243
4.An\ 4.F#\	4.f#/ 4.c#/)	.	4.an/	]
!!LO:TX:a:B:t=Z
!	!	!	!LO:TX:a:B:t=Z:mod=	!
!	!	!	!LO:TX:b:i:t=grandioso	!
8r	8r	.	(8aan\ 8a\	f <
=244	=244	=244	=244	=244
(4AAn/ 4AAAn/	2an/ 2gn/ 2en/ 2An/	<	8bb\L 8b\	.
.	.	.	8ccc#\ 8cc#\)	.
8BB/L 8BBB/	.	.	8dddn\ 8ddn\	.
8C#/J 8CC#/	.	[	8eeen\J 8een\	[
=245	=245	=245	=245	=245
4.Dn/ 4.DDn/)	4.an/ 4.f#/ 4.dn/ 4.An/	>	4.fff#\ 4.ff#\	>
8r	8r	]	(8ccc#\ 8cc#\	] <
=246	=246	=246	=246	=246
4C#/ 4CC#/	(>2cc#/ 2b/ 2g#/ 2c#/	<	8ddd#X\L 8dd#X\	.
.	.	.	8eee#X\ 8ee#X\)	.
8D#X/L 8DD#X/	.	.	8fff#\ 8ff#\	.
8E#X/J 8EE#X/	.	[	8ggg#\J 8gg#\	[
=247	=247	=247	=247	=247
*	*^	*	*	*
*	*	*xywh-#31:161,1369,2347,551	*	*	*
4F#/ 4FF#/	8g#/L	4cc#\ 4c#\	>	(8bbb\L 8bb\	>
.	8an/J)	.	.	8aaan\ 8aan\)	.
8B\L 8BB\	(>8ddn/L 8e#/	4ryy	]	8ggg#\ 8gg#\	] <
8An\J 8AAn\	8cc#/J 8f#/	.	.	8fff#\J 8ff#\	.
*	*v	*v	*	*	*
!!LO:LB:g=original
=248	=248	=248	=248	=248
*xywh-#31:143,2174,2390,584	*xywh-#31:143,2174,2390,584	*	*xywh-#31:150,1889,2441,310	*
8A#X\L 8AA#X\	8cc#/L 8gn/ 8c#/	.	(8eeen\L 8een\	.
8B\J 8BB\	8b/J 8f#/ 8dn/	.	8dddn\ 8ddn\)	.
8C#/L	4an/ 4f#/ 4An/	.	8ccc#\ 8cc#\	.
8Dn/J	.	.	8bb#X\J 8b#X\	[
=249	=249	=249	=249	=249
2C#/ 2CC#/	4an/ 4f#/ 4An/	.	(8dddn\L 8ddn\	>
.	.	.	8ccc#\ 8cc#\)	]
.	4f#/ 4c#/	.	8aan\ 8an\	<
.	.	.	8ff#\J 8f#\	[
=250	=250	=250	=250	=250
*	*^	*	*	*
*	*	*xywh-#31:143,2174,2390,584	*	*	*
2CC#/ 2CCC#/	4f#/	2c#\ 2B\	>	(4.aan\ 4.an\	>
.	4e#/	.	.	.	.
.	.	.	.	8gg#\ 8g#\)	.
*	*v	*v	*	*	*
=251||	=251||	=251||	=251||	=251||
!!!key: f#
*k[f#c#g#]	*k[f#c#g#]	*	*k[f#c#g#]	*
!!LO:TX:B:t=Finale
!	!	!	!LO:TX:a:B:t=Finale.:mod=	!
8FF#/ 8FFF#/	8f#/ 8c#/ 8A/)	.	8ff#\L 8f#\	]
*	*	*	*Xtuplet	*
4F#/ 4FF#/	4f#/ 4c#/ 4A/	] p	24f#^\L	p
!	!	!	!LO:TX:b:i:t=ben ritmico	!
.	.	.	24a\	.
.	.	.	24cc#\JJ	.
.	.	.	24b#X^\LL	.
.	.	.	24cc#\	.
.	.	.	24a\J	.
[8F#/ [8FF#/	[8f#/ [8c#/ [8A/	.	24ff#^\L	.
.	.	.	24cc#\	.
.	.	.	24a\JJ	.
=252	=252	=252	=252	=252
8F#/]L 8FF#/]	8f#/]L 8c#/] 8A/]	.	24aa^\LL	.
.	.	.	24cc#\	.
.	.	.	24a\J	.
8F#/ 8FF#/	8f#/ 8c#/ 8A/	.	24ccc#^\L	.
.	.	.	24cc#\	.
.	.	.	24a\JJ	.
8F#/ 8FF#/	8f#/ 8c#/ 8A/	.	24aa^\LL	.
.	.	.	24cc#\	.
.	.	.	24a\J	.
8F#/J 8FF#/	8f#/J 8c#/ 8A/	.	24gg#^\L	.
.	.	.	24cc#\	.
.	.	.	24a\JJ	.
=253	=253	=253	=253	=253
8F#/ 8FF#/	8f#/ 8c#/ 8A/	.	24ff#^\LL	.
.	.	.	24cc#\	.
.	.	.	24b#X\J	.
8r	8r	.	24dd\L	.
.	.	.	24cc#\	.
.	.	.	24a\JJ	.
8F#/ 8FF#/	8a/ 8f#/ 8c#/	.	24g#/LL	.
.	.	.	24bn/	.
.	.	.	24a/J	.
8r	8r	.	24f#/L	.
.	.	.	24e#X/	.
.	.	.	24g#/JJ	.
!!LO:LB:g=original
=254	=254	=254	=254	=254
*xywh-#31:150,3007,2470,490	*xywh-#31:150,3007,2470,490	*	*xywh-#31:161,2733,2383,288	*
8F#/ 8FF#/	8cc#/ 8a/ 8f#/	.	24f#/LL	<
.	.	.	24c#/	.
.	.	.	24B#X/J	.
8r	8r	.	24d/L	.
.	.	.	24c#/	.
.	.	.	24f#/JJ	.
4r	4r	.	24a\LL	.
.	.	.	24cc#\	.
.	.	.	24ff#\J	.
.	.	.	24aa\L	.
.	.	.	24ccc#\	.
.	.	.	24fff#\JJ	[
=255	=255	=255	=255	=255
8BB/ 8BBB/	8dd/ 8b/ 8f#/ 8d/	<	8ddd'\L	>
4F#\ 4BB\	4f#/ 4d/	.	24B^\L	] <
.	.	.	24d\	.
.	.	.	24f#\JJ	.
.	.	.	24e#X^/LL	.
.	.	.	24f#/	.
.	.	.	24d/J	.
[8F#\ [8BB\	[8f#/ [8d/	.	24b^/L	.
.	.	.	24f#/	.
.	.	.	24d/JJ	.
=256	=256	=256	=256	=256
8F#\]L 8BB\]	8f#/]L 8d/]	.	24dd^/LL	.
.	.	.	24f#/	.
.	.	.	24d/J	.
8F#\ 8BB\	8f#/ 8d/	.	24ff#^/L	.
.	.	.	24f#/	.
.	.	.	24d/JJ	.
8F#\ 8BB\	8f#/ 8d/	.	24dd^/LL	.
.	.	.	24f#/	.
.	.	.	24d/J	.
8F#\J 8BB\	8f#/J 8d/	.	24cc#^/L	.
.	.	.	24f#/	.
.	.	.	24d/JJ	.
=257	=257	=257	=257	=257
8B\ 8BB\	8f#/ 8d/	.	24b^/LL	.
.	.	.	24f#/	.
.	.	.	24e#X/J	.
8r	8r	.	24gn/L	.
.	.	.	24f#/	.
.	.	.	24d/JJ	.
8B\ 8BB\	8b/ 8f#/ 8d/	.	24c#/LL	.
.	.	.	24en/	.
.	.	.	24d/J	.
8r	8r	.	24B/L	.
.	.	.	24A#X/	.
.	.	.	24c#/JJ	.
=258	=258	=258	=258	=258
8B\ 8BB\	8dd/ 8b/ 8f#/	.	24B/LL	<
.	.	.	24A#X/	.
.	.	.	24B/J	.
8r	8r	.	24d/L	.
.	.	.	24f#/	.
.	.	.	24b/JJ	.
4r	4r	.	24dd\LL	.
.	.	.	24ff#\	.
.	.	.	24bb\J	.
.	.	.	24ddd\L	.
.	.	.	24fff#\	.
.	.	.	24ggg#\JJ	[[
!!LO:PB:g=original
=259	=259	=259	=259	=259
*xywh-#32:363,540,2388,509	*xywh-#32:363,540,2388,509	*	*xywh-#32:397,315,2401,241	*
2G#\\ [2C#\\	[2cc#/ 2e#X/	mp	8eee#X'\L	>
.	.	.	(24ccc#\L	] mp
.	.	.	24ee#X\	.
.	.	.	24ccc#\JJ)	.
.	.	.	24ddd\LL(	.
.	.	.	24ee#\	.
.	.	.	24ddd\)J	.
.	.	.	24ccc#\(L	.
.	.	.	24ee#\	.
.	.	.	24ccc#\JJ)	.
=260	=260	=260	=260	=260
*^	*^	*	*	*
*	*xywh-#32:363,540,2388,509	*xywh-#32:363,540,2388,509	*	*	*	*
2C#\\]	8B//L	(2cc#/]	8g#\L	.	24ggg#\LL(	.
.	.	.	.	.	24ee#X\	.
.	.	.	.	.	24ggg#\)J	.
.	8A//	.	8f#\	.	24aaa\(L	.
.	.	.	.	.	24ff#\	.
.	.	.	.	.	24aaa\JJ)	.
.	8G#//	.	8e#X\	.	24bbb\LL(	.
.	.	.	.	.	24gg#\	.
.	.	.	.	.	24bbb\)J	.
.	8B//J	.	8g#\J	.	24ggg#\(L	.
.	.	.	.	.	24ee#\	.
.	.	.	.	.	24ggg#\JJ)	.
*v	*v	*	*	*	*	*
*	*v	*v	*	*	*
=261	=261	=261	=261	=261
[2A\ [2C#\	2b#X/ 2f#/ 2d#X/	.	8aaa\L	.
.	.	.	24aaa`\L	.
.	.	.	(24cccn\	.
.	.	.	24aaa\JJ)	.
.	.	.	24ggg#`\LL	.
.	.	.	(24aa\	.
.	.	.	24ggg#\)J	.
.	.	.	24ddd#X`\L	.
.	.	.	(24ff#\	.
.	.	.	24ddd#\JJ)	.
=262	=262	=262	=262	=262
2A\] 2C#\]	8aa\L 8b#X\	.	24cccn`\LL	.
.	.	.	(24dd#X\	.
.	.	.	24ccc\)J	.
.	8ff#\ 8a\	.	24ddd#X`\L	.
.	.	.	(24ff#\	.
.	.	.	24ddd#\JJ)	.
.	8dd#X\ 8f#\	.	24fff#`\LL	.
.	.	.	(24aa\	.
.	.	.	24fff#\)J	.
.	8b#\J 8d#X\	.	24aaa`\L	.
.	.	.	(24ccc\	.
.	.	.	24aaa\JJ)	.
=263	=263	=263	=263	=263
!!LO:TX:a:B:t=AA
!	!	!	!LO:TX:a:B:t=A:mod=	!
2G#\ [2C#\	[2cc#/ 2e#X/)	.	8ggg#\	.
.	.	.	24cc#/LL(	<
.	.	.	24e#X/	.
.	.	.	24cc#/JJ)	.
.	.	.	24ddn/LL(	.
.	.	.	24e#/	.
.	.	.	24dd/)J	.
.	.	.	24cc#/(L	.
.	.	.	24e#/	.
.	.	.	24cc#/JJ)	.
!!LO:LB:g=original
=264	=264	=264	=264	=264
*^	*^	*	*	*
*xywh-#32:353,1360,2388,545	*xywh-#32:353,1360,2388,545	*xywh-#32:353,1360,2388,545	*xywh-#32:353,1360,2388,545	*	*xywh-#32:306,1126,2435,257	*
2C#\\]	8B//L	(2cc#/]	8g#\L	<	24gg#\LL(	.
.	.	.	.	.	24e#X\	.
.	.	.	.	.	24gg#\)J	.
.	8A//	.	8f#\	.	24aa\(L	.
.	.	.	.	.	24e#\	.
.	.	.	.	.	24aa\JJ)	.
.	8G#//	.	8e#X\	.	24bb\LL(	.
.	.	.	.	.	24e#\	.
.	.	.	.	.	24bb\)J	.
.	8B//J	.	8g#\J	.	24gg#\(L	.
.	.	.	.	.	24e#\	.
.	.	.	.	.	24gg#\JJ)	.
*v	*v	*	*	*	*	*
*	*v	*v	*	*	*
=265	=265	=265	=265	=265
[2A\ [2C#\	2dd#X/ 2f#/ 2d#X/	.	8aa`\L	.
.	.	.	24aa\L(	.
.	.	.	24ccn\	.
.	.	.	24aa\JJ)	.
.	.	.	24ff#`\LL	.
.	.	.	(24a\	.
.	.	.	24ff#\)J	.
.	.	.	24dd#X`\L	.
.	.	.	(24f#\	.
.	.	.	24dd#\JJ)	.
=266	=266	=266	=266	=266
*	*^	*	*	*
*	*	*xywh-#32:353,1360,2388,545	*	*	*
2A\] 2C#\]	8dd#X/L 8f#/	4ryy	.	24ccn`/LL	.
.	.	.	.	(24d#X/	.
.	.	.	.	24cc/)J	.
.	8b#X/ 8d#X/	.	.	24dd#X`/L	.
.	.	.	.	(24f#/	.
.	.	.	.	24dd#/JJ)	.
.	8a/	4B#X\	.	24ff#`\LL	.
.	.	.	.	(24a\	.
.	.	.	.	24ff#\)J	.
.	8f#/J	.	.	24aa`\L	.
.	.	.	.	(24cc\	.
.	.	.	.	24aa\JJ)	.
*	*v	*v	*	*	*
=267	=267	=267	=267	=267
8G#\ 8C#\	8cc#/ 8e#X/ 8c#/)	mf	8gg#`/L	mf
8r	8r	.	24c#/L(	<
.	.	.	24dn/	.
.	.	.	24c#/JJ)	.
4r	4r	.	24d#X/LL	.
.	.	.	24c#/	.
.	.	.	24e/J	.
.	.	.	24c#/L	.
.	.	.	24e#X/	.
.	.	.	24c#/JJ	.
=268	=268	=268	=268	=268
2r	2r	.	24g#/LL(	.
.	.	.	24c#/	.
.	.	.	24cc#/)J	.
.	.	.	24cc#^>/(L	.
.	.	.	24ddn/	.
.	.	.	24cc#/JJ)	.
.	.	.	24dd#X\LL	.
.	.	.	24cc#\	.
.	.	.	24ee\J	.
.	.	.	24cc#\L	.
.	.	.	24ee#X\	.
.	.	.	24cc#\JJ	.
!!LO:LB:g=original
=269	=269	=269	=269	=269
*xywh-#32:363,2178,2421,542	*xywh-#32:363,2178,2421,542	*	*xywh-#32:363,1950,2398,261	*
2r	2r	.	24gg#\LL(	.
.	.	.	24ee\	.
.	.	.	24ccc#\)J	.
.	.	.	24ccc#^\(L	.
.	.	.	24dddn\	.
.	.	.	24ccc#\JJ)	.
.	.	.	24ddd#X\LL	.
.	.	.	24ccc#\	.
.	.	.	24eee\J	.
.	.	.	24ccc#\L	.
.	.	.	24eee#X\	.
.	.	.	24ccc#\JJ	.
=270	=270	=270	=270	=270
2r	2r	.	24bbb\LL	.
.	.	.	24aaa\	.
.	.	.	24ggg#\J	.
.	.	.	24fff#\L	.
.	.	.	24eee#X\	.
.	.	.	24ccc#\JJ	.
.	.	.	24bb\LL	.
.	.	.	24gg#\	.
.	.	.	24ee#X\J	.
.	.	.	24cc#\L	.
.	.	.	24b\	.
.	.	.	24g#\JJ	.
=271	=271	=271	=271	=271
!!LO:TX:a:B:t=BB
!	!	!	!LO:TX:a:B:t=B:mod=	!
8F#/ 8FF#/	8f#/ 8c#/ 8A/	f	8f#/L	f
4F#/ 4FF#/	4f#/ 4c#/ 4A/	.	24f#^/L	.
.	.	.	24a/	.
.	.	.	24cc#/JJ	.
.	.	.	24b#X^\LL	.
.	.	.	24cc#\	.
.	.	.	24a\J	.
[8F#/ [8FF#/	[8f#/ [8c#/ [8A/	.	24ff#^\L	.
.	.	.	24cc#\	.
.	.	.	24a\JJ	.
=272	=272	=272	=272	=272
8F#/]L 8FF#/]	8f#/]L 8c#/] 8A/]	.	24aa^\LL	.
.	.	.	24cc#\	.
.	.	.	24a\J	.
8F#/ 8FF#/	8f#/ 8c#/ 8A/	.	24ccc#^\L	.
.	.	.	24cc#\	.
.	.	.	24a\JJ	.
8F#/ 8FF#/	8f#/ 8c#/ 8A/	.	24aa^\LL	.
.	.	.	24cc#\	.
.	.	.	24a\J	.
8F#/J 8FF#/	8f#/J 8c#/ 8A/	.	24gg#^\L	.
.	.	.	24cc#\	.
.	.	.	24a\JJ	.
=273	=273	=273	=273	=273
8F#/ 8FF#/	8f#/ 8c#/ 8A/	.	24ff#^\LL	.
.	.	.	24cc#\	.
.	.	.	24b#X\J	.
8r	8r	.	24dd\L	.
.	.	.	24cc#\	.
.	.	.	24a\JJ	.
8F#/ 8FF#/	8a/ 8f#/ 8c#/	.	24g#/LL	.
.	.	.	24bn/	.
.	.	.	24a/J	.
8r	8r	.	24f#/L	.
.	.	.	24e#X/	.
.	.	.	24g#/JJ	.
!!LO:LB:g=original
=274	=274	=274	=274	=274
*xywh-#32:350,2968,2462,475	*xywh-#32:350,2968,2462,475	*	*xywh-#32:410,2707,2401,284	*
8F#/ 8FF#/	8cc#/ 8a/ 8f#/	.	24f#/LL	<
.	.	.	24c#/	.
.	.	.	24B#X/J	.
8r	8r	.	24d/L	.
.	.	.	24c#/	.
.	.	.	24f#/JJ	.
4r	4r	.	24a\LL	.
.	.	.	24cc#\	.
.	.	.	24ff#\J	.
.	.	.	24aa\L	.
.	.	.	24ccc#\	.
.	.	.	24fff#\JJ	[
=275	=275	=275	=275	=275
8A\ 8AA\	8cc#/ 8a/ 8gn/	.	8gggn\L	>
4A\ 4AA\	4cc#/ 4a/ 4g/	.	24a^\L	]
.	.	.	24cc#\	.
.	.	.	24ee\JJ	.
.	.	.	24dd#X^\LL	.
.	.	.	24ee\	.
.	.	.	24cc#\J	.
[8A\ [8AA\	[8cc#/ [8a/ [8g/	.	24aa^\L	.
.	.	.	24ee\	.
.	.	.	24cc#\JJ	.
=276	=276	=276	=276	=276
8A\]L 8AA\]	8cc#/]L 8a/] 8g/]	.	24ccc#^\LL	.
.	.	.	24ee\	.
.	.	.	24cc#\J	.
8A\ 8AA\	8cc#/ 8a/ 8gn/	.	24eee^\L	.
.	.	.	24ee\	.
.	.	.	24cc#\JJ	.
8A\ 8AA\	8cc#/ 8a/ 8g/	.	24ccc#^\LL	.
.	.	.	24ee\	.
.	.	.	24cc#\J	.
8A\J 8AA\	8cc#/J 8a/ 8g/	.	24bb^\L	.
.	.	.	24ee\	.
.	.	.	24cc#\JJ	.
=277	=277	=277	=277	=277
8A\ 8AA\	8cc#/ 8a/ 8gn/	.	24aa^\LL	.
.	.	.	24gg#\	.
.	.	.	24bb\J	.
8r	8r	.	24aa\L	.
.	.	.	24ggn\	.
.	.	.	24ee\JJ	.
8A\ 8AA\	8ee\ 8a\ 8g\	.	24dd#X\LL	.
.	.	.	24ff#\	.
.	.	.	24ee\J	.
8r	8r	.	24cc#\L	.
.	.	.	24b#X\	.
.	.	.	24ddn\JJ	.
!!LO:PB:g=original
=278	=278	=278	=278	=278
*xywh-#33:48,596,2483,516	*xywh-#33:48,596,2483,516	*	*xywh-#33:113,340,2364,278	*
8A\ 8AA\	8a/ 8gn/ 8c#/	.	24cc#/LL	.
.	.	.	24a/	.
.	.	.	24g#/J	.
8r	8r	.	24bn/L	.
.	.	.	24a/	.
.	.	.	24gn/JJ	.
4r	4r	.	24f#/LL	.
.	.	.	24a/	.
.	.	.	24g/J	.
.	.	.	24e/L	.
.	.	.	24c#/	.
.	.	.	24A/JJ	.
=279	=279	=279	=279	=279
!!LO:TX:a:B:t=CC
!	!	!	!LO:TX:a:B:t=C:mod=	!
8D\	8f#/ 8d/ 8A/	.	8f#/L	.
8r	8r	.	24d^/L	<
.	.	.	24f#/	.
.	.	.	24a/JJ	.
4r	4r	.	24g#X\LL	.
.	.	.	24a\	.
.	.	.	24f#\J	.
.	.	.	24dd\L	.
.	.	.	24a\	.
.	.	.	24ff#\JJ	.
=280	=280	=280	=280	=280
4r	4r	.	24dd\LL	.
.	.	.	24aa\	.
.	.	.	24ff#\J	.
.	.	.	24ddd\L	.
.	.	.	24aa\	.
.	.	.	24fff#\JJ	.
8GGn/	8gn/ 8d/ 8B/	<	24gn\LL	.
.	.	.	24dd\	.
.	.	.	24b\J	.
8r	8r	.	24ggn\L	.
.	.	.	24dd\	.
.	.	.	24bb\JJ	.
=281	=281	=281	=281	=281
8C#/	8e#X/ 8c#/ 8B/	.	8c#/L	.
8r	8r	.	24c#/L	.
.	.	.	24e#X/	.
.	.	.	24g#X/JJ	.
4r	4r	.	24f##X/LL	.
.	.	.	24g#/	.
.	.	.	24e#/J	.
.	.	.	24cc#/L	.
.	.	.	24g#/	.
.	.	.	24ee#X/JJ	.
!!LO:LB:g=original
=282	=282	=282	=282	=282
*xywh-#33:77,1352,2443,506	*xywh-#33:77,1352,2443,506	*	*xywh-#33:117,1110,2414,256	*
4r	4r	.	24cc#\LL	.
.	.	.	24gg#\	.
.	.	.	24ee#X\J	.
.	.	.	24ccc#\L	.
.	.	.	24gg#\	.
.	.	.	24eee#X\JJ	.
8F#/ 8FF#/	8f#/ 8c#/ 8A/	.	24f#\LL	.
.	.	.	24cc#\	.
.	.	.	24a\J	.
8r	8r	.	24ff#\L	.
.	.	.	24cc#\	.
.	.	.	24aa\JJ	.
=283	=283	=283	=283	=283
8F#\ 8BB\	8f#/ 8d/ 8B/	.	8B/L	.
8r	8r	.	24B/L	.
.	.	.	24dn/	.
.	.	.	24f#/JJ	.
4r	4r	.	24e#X/LL	.
.	.	.	24f#/	.
.	.	.	24d/J	.
.	.	.	24b/L	.
.	.	.	24f#/	.
.	.	.	24dd/JJ	.
=284	=284	=284	=284	=284
4r	4r	.	24b\LL	.
.	.	.	24ff#\	.
.	.	.	24dd\J	.
.	.	.	24bb\L	.
.	.	.	24ff#\	.
.	.	.	24ddd\JJ	.
8BB#X/ 8BBB#X/	8f#/ 8d#X/ 8A/	.	24B#X/LL	.
.	.	.	24a/	.
.	.	.	24f#/J	.
8r	8r	.	24dd#X/L	.
.	.	.	24a/	.
.	.	.	24ff#/JJ	.
=285	=285	=285	=285	=285
8C#/ 8CC#/	8f#/ 8c#/ 8A/	.	24c#\LL	.
.	.	.	24f#\	.
.	.	.	24a\J	.
8r	8r	.	24cc#\L	.
.	.	.	24ff#\	.
.	.	.	24aa\JJ	.
4r	4r	.	24ccc#\LL	.
.	.	.	24fff#\	.
.	.	.	24aaa\J	.
.	.	.	24cccc#\L	.
.	.	.	24aaa\	.
.	.	.	24fff#\JJ	.
=286	=286	=286	=286	=286
2r	2r	.	24ccc#\LL	.
.	.	.	24aa\	.
.	.	.	24ff#\J	.
.	.	.	24ccc#\L	.
.	.	.	24aa\	.
.	.	.	24ff#\JJ	.
.	.	.	24cc#/LL	.
.	.	.	24a/	.
.	.	.	24f#/J	.
.	.	.	24cc#/L	.
.	.	.	24a/	.
.	.	.	24f#/JJ	.
!!LO:LB:g=original
=287	=287	=287	=287	=287
*xywh-#33:99,2165,2422,484	*xywh-#33:99,2165,2422,484	*	*xywh-#33:81,1873,2494,281	*
8C#/ 8CC#/	8e#X/ 8c#/ 8B/	.	24c#/LL	.
.	.	.	24d/	.
.	.	.	24B#X/J	.
8r	8r	.	24c#/L	.
.	.	.	24e#X/	.
.	.	.	24g#/JJ	.
4r	4r	.	(24cc#\LL	.
.	.	.	24dd\)	.
.	.	.	24b#X\J	.
.	.	.	24cc#\L	.
.	.	.	24ee#X\	.
.	.	.	24gg#\JJ	.
=288	=288	=288	=288	=288
4r	4r	.	24ccc#\LL	.
.	.	.	24ddd\	.
.	.	.	24bb#X\J	.
.	.	.	24ccc#\L	.
.	.	.	24eee#X\	.
.	.	.	24ggg#\JJ	.
8r	8r	.	(24cccc#\LL	.
.	.	.	24c#\)	.
.	.	.	24d\J	.
8C#/ 8CC#/	8ee#X/ 8cc#/ 8b/ 8e#X/	.	24d#X\L	.
.	.	.	24en\	.
.	.	.	24e#X\JJ	.
=289	=289	=289	=289	=289
!!LO:TX:a:B:t=DD
!	!	!	!LO:TX:a:B:t=D:mod=	!
8FF#/ 8FFF#/	8ff#\ 8cc#\ 8a\ 8f#\	ff	24f#/LL	ff
.	.	.	24a/	.
.	.	.	24b/J	.
8r	8r	.	24cc#/L	.
.	.	.	24ddn/	.
.	.	.	24b#X/JJ	.
8r	8r	.	24cc#`\LL	.
.	.	.	(24c#\	.
.	.	.	24ccc#\ 24ee#X\ 24g#\)J	.
8C#/	8e#X/ 8c#/ 8B/	.	(24g#\ 24c#\L	.
.	.	.	24ddd\ 24ee#\)	.
.	.	.	24ccc#\JJ 24ee#`\	.
=290	=290	=290	=290	=290
8F#/ 8C#/ 8FF#/	8f#/ 8c#/ 8A/	.	24f#/LL	.
.	.	.	24a/	.
.	.	.	24bn/J	.
8r	8r	.	24cc#/L	.
.	.	.	24dd/	.
.	.	.	24b#X/JJ	.
8r	8r	.	24cc#`\LL	.
.	.	.	(24c#\	.
.	.	.	24ccc#\ 24ee#X\ 24g#\)J	.
8C#/ 8CC#/	8ee#X/ 8cc#/ 8b/ 8e#X/	.	(24g#\ 24c#\L	.
.	.	.	24ddd\ 24ee#\)	.
.	.	.	24ccc#\JJ 24ee#`\	.
!!LO:LB:g=original
=291	=291	=291	=291	=291
*xywh-#33:103,2921,2389,603	*xywh-#33:103,2921,2389,603	*	*xywh-#33:142,2700,2375,242	*
8F#/L 8FF#/	8ff#\L 8cc#\ 8a\ 8f#\	<	(8f#/L	<
8F#/J	8ff#\ 8cc#\ 8a\ 8f#\	.	24A/L)	.
.	.	.	24c#/	.
.	.	.	24e#X/JJ	.
8c#\L 8C#\	8ff#\ 8cc#\ 8a\ 8f#\	.	24f#\LL	.
.	.	.	24a\	.
.	.	.	24cc#\J	.
8A\J 8AA\	8ff#\J 8cc#\ 8a\ 8f#\	.	24ff#\L	.
.	.	.	24aa\	.
.	.	.	24ccc#\JJ	.
=292	=292	=292	=292	=292
8F#/L 8FF#/	8ff#\L 8cc#\ 8a\ 8f#\	.	8fff#\L	.
8F#/ 8FF#/	8ff#\ 8cc#\ 8a\ 8f#\	.	24f#\L	.
.	.	.	24a\	.
.	.	.	24cc#\JJ	.
8C#/ 8CC#/	8ff#\ 8cc#\ 8a\ 8f#\	.	24ff#\LL	.
.	.	.	24aa\	.
.	.	.	24ccc#\J	.
*	*	*	*8va	*
8AA/J 8AAA/	8ff#\J 8cc#\ 8a\ 8f#\	.	24fff#\L	.
.	.	.	24aaa\	.
.	.	.	24cccc#\JJ	.
=293	=293	=293	=293	=293
8FF#/ 8FFF#/	8ff#\ 8cc#\ 8a\ 8f#\	.	8ffff#\	.
*	*	*	*X8va	*
8r	8r	.	8r	.
8f#\ 8c#\ 8A\ 8F#\	8aa\ 8ff#\ 8cc#\ 8a\	.	8aa\ 8cc#\ 8f#~\	.
8r	8r	.	8r	.
=294	=294	=294	=294	=294
8F#/ 8FF#/	8f#/ 8c#/ 8A/	.	8f#/ 8A~/	.
8r	8r	.	8r	.
!	!	!	!LO:N:n=2:vis=2	!
8f#\ 8c#\ 8A\ 8F#\	8fff#\ 8ccc#\ 8aa\ 8ff#\	.	8ffff#\ 8ra\ 8rf#\	.
8r	16r	.	16r	.
.	16f#/ 16c#/ 16A/	.	16f#/ 16A/	.
=295	=295	=295	=295	=295
*tremolo	*	*	*	*
32FFF#/LLL	[2f#/ [2c#/ [2A/	fff	[2f#/ [2A/	fff
32FF#/	.	.	.	.
32FFF#/	.	.	.	.
32FF#/	.	.	.	.
32FFF#/	.	.	.	.
32FF#/	.	.	.	.
32FFF#/	.	.	.	.
32FF#/	.	.	.	.
32FFF#/	.	.	.	.
32FF#/	.	.	.	.
32FFF#/	.	.	.	.
32FF#/	.	.	.	.
32FFF#/	.	.	.	.
32FF#/	.	.	.	.
32FFF#/	.	.	.	.
32FF#/JJJ	.	.	.	.
=296	=296	=296	=296	=296
32FFF#/LLL	2f#/_ 2c#/_ 2A/_	.	2f#/_ 2A/_	.
32FF#/	.	.	.	.
32FFF#/	.	.	.	.
32FF#/	.	.	.	.
32FFF#/	.	.	.	.
32FF#/	.	.	.	.
32FFF#/	.	.	.	.
32FF#/	.	.	.	.
32FFF#/	.	.	.	.
32FF#/	.	.	.	.
32FFF#/	.	.	.	.
32FF#/	.	.	.	.
32FFF#/	.	.	.	.
32FF#/	.	.	.	.
32FFF#/	.	.	.	.
32FF#/JJJ	.	.	.	.
=297	=297	=297	=297	=297
8FFF#/	8f#/] 8c#/] 8A/]	.	8f#/] 8A/]	.
8r	8r	.	8r	.
4r	4r	.	4r	.
==	==	==	==	==
*-	*-	*-	*-	*-
!!!system-decoration: (s1){(s2,s3)}
!!!RDF**kern: > = above
!!!RDF**kern: < = below
!!!RDF**dynam: > = dim.
!!!RDF**kern: N = linked
!!!filter-modern: sic -sq | shed -e "s/:rj/:RJ/L" | shed -e "s/LO:DY:(a|b|rj)/LO:dy:$1/L" | autostem -r | tie -s  | modori -m
!!!ENC: Berenika Jozajtis
!!!END: 2022-05-18
!!!EED: Andrzej Borzym
!!!EEV: 2022-06-23
!!!ENC-modern: Andrzej Borzym
!!!END-modern: 2022-07-20
!!!ENC-iiif: Olaf Gawdzik
!!!END-iiif: 2022-09-03
